!!!!SEGMENT: pl-cz--i-168--001_zebrowski-marcin-jozef--sonata-pro-processione-in-c.krn
!!!cenid: 17xx:2317
!!!COM: Żebrowski, Marcin Józef
!!!COM-rismID: pe30020322
!!!CDT: 1702-1770/06/29
!!!CNT: Polish
!!!OTL: Sonata pro processione in C
!!!PDT:
!!!AGN:
!!!SMS-siglum: PL-CZ
!!!SMS-shelfmark: I-168
!!!SMS-shelfwork: 001 W
!!!SMS-variant:
!!!SMS-altvar:
!!!NIFC-rismSourceID: 300033521
!!!NIFC-rismChildID: 300033522
!!!NIFC-islandoraID: pl-cz:970
!!!URL-pdf-islandora: https://repozytorium.nifc.pl/islandora/object/pl-cz%3A970/datastream/PDF/view
!!!URL-scan: https://polish.musicsources.pl/pl/lokalizacje/galeria/rekopisy/571 @EN{Scan on Polish Music Sources Website} @PL{Skany w portalu Dziedzictwo Muzyki Polskiej w otwartym dostępie}
!!!IIIF:
!!!ONB-nifc: UWAGA: w zbiorze 2 Sonaty: 1. in C (Andante 1) i 2. in Es (Adagio 2)
!!!AIN: 1 cbass 2 clrno 2 oboe 1 organ 2 violn
!!!key: C
**kern	**fba	**dynam	**kern	**dynam	**kern	**dynam	**kern	**dynam	**kern	**dynam	**kern	**dynam	**kern	**kern
*part8	*part8	*part8	*part7	*part7	*part6	*part6	*part5	*part5	*part4	*part4	*part3	*part3	*part2	*part1
*staff8	*	*	*staff7	*	*staff6	*	*staff5	*	*staff4	*	*staff3	*	*staff2	*staff1
*I"Organo.	*	*	*I"Baſso.	*	*I"Violino Secondo.	*	*I"Violino Primo.	*	*I"Clarino secondo ex C,	*	*I"Clarino Primo ex C.	*	*I"Hoboe Secondo.	*I"Hoboe Primo.
*I'org	*	*	*I'b	*	*I'vl II	*	*I'vl I	*	*I'clno II	*	*I'clno I	*	*I'ob II	*I'ob I
*ICklav	*	*	*ICstr	*	*ICstr	*	*ICstr	*	*ICbras	*	*ICbras	*	*ICww	*ICww
*Iorgan	*	*	*Icbass	*	*Ivioln	*	*Ivioln	*	*Iclrno	*	*Iclrno	*	*Ioboe	*Ioboe
*clefF4	*	*	*clefF4	*	*clefG2	*	*clefG2	*	*clefG2	*	*clefG2	*	*clefG2	*clefG2
*C:	*	*	*C:	*	*C:	*	*C:	*	*C:	*	*C:	*	*C:	*C:
*	*	*	*Trd0c0	*	*	*	*	*	*	*	*	*	*	*
*k[]	*	*	*k[]	*	*k[]	*	*k[]	*	*k[]	*	*k[]	*	*k[]	*k[]
*M2/4	*	*	*M2/4	*	*M2/4	*	*M2/4	*	*M2/4	*	*M2/4	*	*M2/4	*M2/4
=1	=1	=1	=1	=1	=1	=1	=1	=1	=1	=1	=1	=1	=1	=1
*	*	*	*	*	*2\right	*	*2\right	*	*2\right	*	*2\right	*	*2\right	*2\right
*	*	*	*	*	*Xtuplet	*	*Xtuplet	*	*Xtuplet	*	*Xtuplet	*	*Xtuplet	*Xtuplet
!	!	!	!	!	!	!	!	!	!	!	!	!	!	!LO:TX:a:B:t=Andante 1.
!LO:TX:a:B:t=Andante. 1.	!	!	!LO:TX:a:B:t=Andante. 1	!	!LO:TX:a:B:t=Andante. 1.	!	!LO:TX:a:B:t=Andante 1	!	!LO:TX:a:B:t=Andante 1.	!	!LO:TX:a:B:t=Andante. 1	!	!LO:TX:a:B:t=Andante. 1.	!LO:TX:a:B:t=Andante
8C\L	.	.	8C\L	.	8e/L	.	8g/L	.	8ee\L	.	8gg\L	.	4cc\	4cc\
8C\	.	.	8C\	.	[8e/J	.	[8g/J	.	[8ee\J	.	[8gg\J	.	.	.
8E\	6	.	8E\	.	24e/LL]	.	24g/LL]	.	24ee\LL]	.	24gg\LL]	.	4r	4r
.	.	.	.	.	24c/	.	24e/	.	24cc\	.	24ee\	.	.	.
.	.	.	.	.	24e/JJ	.	24g/JJ	.	24ee\JJ	.	24gg\JJ	.	.	.
8G\J	7	.	8G\J	.	24d/LL	.	24f/LL	.	24dd\LL	.	24ff\LL	.	.	.
.	.	.	.	.	24B/	.	24d/	.	24g\	.	24dd\	.	.	.
.	.	.	.	.	24d/JJ	.	24f/JJ	.	24dd\JJ	.	24ff\JJ	.	.	.
=2	=2	=2	=2	=2	=2	=2	=2	=2	=2	=2	=2	=2	=2	=2
8c\L	.	.	8c\L	.	24c/LL	.	24e/LL	.	4cc\	.	4ee\	.	8ee\L	8gg\L
.	.	.	.	.	24a/	.	24cc/	.	.	.	.	.	.	.
.	.	.	.	.	24f/J	.	24a/J	.	.	.	.	.	.	.
.	.	.	.	.	8qqf/	.	8qqa/	.	.	.	.	.	.	.
8C\	.	.	8C\	.	[8e/J	.	[8g/J	.	.	.	.	.	[8ee\J	[8gg\J
8E\	6	.	8E\	.	24e/LL]	.	24g/LL]	.	4r	.	4r	.	24ee\LL]	24gg\LL]
.	.	.	.	.	24c/	.	24e/	.	.	.	.	.	24cc\	24ee\
.	.	.	.	.	24e/JJ	.	24g/JJ	.	.	.	.	.	24ee\JJ	24gg\JJ
8G\J	7	.	8G\J	.	24d/LL	.	24f/LL	.	.	.	.	.	24dd\LL	24ff\LL
.	.	.	.	.	24B/	.	24d/	.	.	.	.	.	24b\	24dd\
.	.	.	.	.	24d/JJ	.	24f/JJ	.	.	.	.	.	24dd\JJ	24ff\JJ
=3	=3	=3	=3	=3	=3	=3	=3	=3	=3	=3	=3	=3	=3	=3
8c\L	.	.	8c\L	.	24c/LL	.	24e/LL	.	8r	.	8r	.	24cc\LL	24ee\LL
.	.	.	.	.	24a/	.	24cc/	.	.	.	.	.	24aa\	24ccc\
.	.	.	.	.	24f/J	.	24a/J	.	.	.	.	.	24ff\J	24aa\J
.	.	.	.	.	8qqf/	.	8qqa/	.	.	.	.	.	.	.
8C\	.	.	8C\	.	[8e/J	.	[8g/J	.	[8ee\	.	[8gg\	.	[8ee\J	[8gg\J
8E\	6	.	8E\	.	24e/LL]	.	24g/LL]	.	24ee\LL]	.	24gg\LL]	.	24ee\LL]	24gg\LL]
.	.	.	.	.	24c/	.	24e/	.	24cc\	.	24ee\	.	24cc\	24ee\
.	.	.	.	.	24e/JJ	.	24g/JJ	.	24ee\JJ	.	24gg\JJ	.	24ee\JJ	24gg\JJ
8G\J	7	.	8G\J	.	24d/LL	.	24f/LL	.	24dd\LL	.	24ff\LL	.	24dd\LL	24ff\LL
.	.	.	.	.	24B/	.	24d/	.	24g\	.	24dd\	.	24b\	24dd\
.	.	.	.	.	24d/JJ	.	24f/JJ	.	24dd\JJ	.	24ff\JJ	.	24dd\JJ	24ff\JJ
=4	=4	=4	=4	=4	=4	=4	=4	=4	=4	=4	=4	=4	=4	=4
!LO:TX:t=P:problem=mixed beam	!	!	!	!	!	!	!	!	!	!	!	!	!	!
8c\L	.	.	8c\L	.	(32c/KLL	.	(32e/KLL	.	4cc\	.	4ee\	.	4cc\	4ee\
.	.	.	.	.	16.B/JJ)	.	16.B/JJ)	.	.	.	.	.	.	.
8C/J	.	.	8C\J	.	(32c/KLL	.	(32c/KLL	.	.	.	.	.	.	.
.	.	.	.	.	16.e/JJ)	.	16.e/JJ)	.	.	.	.	.	.	.
4r	.	.	4r	.	(32g/KLL	.	(32g/KLL	.	4r	.	4r	.	4r	4r
.	.	.	.	.	16.b/JJ)	.	16.b/JJ)	.	.	.	.	.	.	.
.	.	.	.	.	(32cc\KLL	.	(32cc\KLL	.	.	.	.	.	.	.
.	.	.	.	.	16.ee\JJ)	.	16.ee\JJ)	.	.	.	.	.	.	.
=5	=5	=5	=5	=5	=5	=5	=5	=5	=5	=5	=5	=5	=5	=5
8r	.	.	8r	.	8ee\	.	8gg\	.	8ee\	.	8gg\	.	8ee\	8gg\
8C/L	.	.	8C/L	.	4ee\	.	4gg\	.	4ee\	.	4gg\	.	4ee\	4gg\
8C/	.	.	8C/	.	.	.	.	.	.	.	.	.	.	.
8C/J	.	.	8C/J	.	16dd\LL	.	16ff\LL	.	16dd\LL	.	16ff\LL	.	16dd\LL	16ff\LL
.	.	.	.	.	16cc\JJ	.	16ee\JJ	.	16cc\JJ	.	16ee\JJ	.	16cc\JJ	16ee\JJ
=6	=6	=6	=6	=6	=6	=6	=6	=6	=6	=6	=6	=6	=6	=6
4G\	.	.	4G\	.	(32b/KLL	.	(32dd\KLL	.	4g/	.	4dd\	.	4b/	4dd\
.	.	.	.	.	16.f#X/JJ)	.	16.f#X\JJ)	.	.	.	.	.	.	.
.	.	.	.	.	(32g/KLL	.	(32g/KLL	.	.	.	.	.	.	.
.	.	.	.	.	16.b/JJ)	.	16.b/JJ)	.	.	.	.	.	.	.
4r	.	.	4r	.	(32dd\KLL	.	(32dd\KLL	.	4r	.	4r	.	4r	4r
.	.	.	.	.	16.ff#X\JJ)	.	16.ff#X\JJ)	.	.	.	.	.	.	.
.	.	.	.	.	(32gg\KLL	.	(32gg\KLL	.	.	.	.	.	.	.
*	*	*	*	*	*	*	*custos:dd	*	*	*	*	*	*	*
.	.	.	.	.	16.bb\JJ)	.	16.bb\JJ)	.	.	.	.	.	.	.
!	!	!	!	!	!LO:LB:g=original	!	!LO:LB:g=original	!	!	!	!	!	!	!
=7	=7	=7	=7	=7	=7	=7	=7	=7	=7	=7	=7	=7	=7	=7
8r	.	.	8r	.	8b/	.	8dd\	.	8r	.	8r	.	8b/	8dd\
8GG/L	.	.	8GG/L	.	4b/	.	4dd\	.	16g/LL	.	16dd\LL	.	4b/	4dd\
.	.	.	.	.	.	.	.	.	16g/JJ	.	16dd\JJ	.	.	.
8GG/	.	.	8GG/	.	.	.	.	.	8g/L	.	8dd\L	.	.	.
8GG/J	.	.	8GG/J	.	16a/LL	.	16cc\LL	.	8g/J	.	8dd\J	.	16a/LL	16cc\LL
.	.	.	.	.	16g/JJ	.	16b\JJ	.	.	.	.	.	16g/JJ	16b\JJ
=8	=8	=8	=8	=8	=8	=8	=8	=8	=8	=8	=8	=8	=8	=8
!	!	!	!	!	!	!	!LO:TX:t=P:problem=mixed beam	!	!	!	!	!	!	!
4D\	7 #	.	4D\	.	(32a/KLL	.	(32cc\KLL	.	4dd\	.	4dd\	.	4a/	4cc\
.	.	.	.	.	16.d/JJ)	.	16.d/JJ)	.	.	.	.	.	.	.
.	.	.	.	.	(32f#X/KLL	.	(32f#X/KLL	.	.	.	.	.	.	.
.	.	.	.	.	16.a/JJ)	.	16.a/JJ)	.	.	.	.	.	.	.
4r	.	.	4r	.	(32cc#X\KLL	.	(32cc#X\KLL	.	4r	.	4r	.	4r	4r
.	.	.	.	.	16.dd\JJ)	.	16.dd\JJ)	.	.	.	.	.	.	.
.	.	.	.	.	(32ff#X\KLL	.	(32ff#X\KLL	.	.	.	.	.	.	.
.	.	.	.	.	16.aa\JJ)	.	16.aa\JJ)	.	.	.	.	.	.	.
=9	=9	=9	=9	=9	=9	=9	=9	=9	=9	=9	=9	=9	=9	=9
!	!	!	!	!	!	!	!	!	!	!	!	!	!	!
8r	.	.	8r	.	8a/	.	8ccn\	.	2dd\	.	2ff#X\	.	8a/	8cc\
8DD/L	7 #	.	8DD/L	.	4a/	.	4cc\	.	.	.	.	.	4a/	4cc\
8DD/	.	.	8DD/	.	.	.	.	.	.	.	.	.	.	.
8DD/J	.	.	8DD/J	.	16g/LL	.	16b/LL	.	.	.	.	.	16g/LL	16b/LL
.	.	.	.	.	16f#X/JJ	.	16a/JJ	.	.	.	.	.	16f#X/JJ	16a/JJ
=10	=10	=10	=10	=10	=10	=10	=10	=10	=10	=10	=10	=10	=10	=10
!	!	!	!	!	!	!	! 	!	!	!	!	!	!	!
8GG/L	3	.	8GG/L	.	8g/L	.	16b`\KL	.	4g/	.	4gg\	.	4g/	4b/
.	.	.	.	.	.	.	(8ee\	.	.	.	.	.	.	.
8G\	6	.	8G\	.	8b/	.	.	.	.	.	.	.	.	.
.	.	.	.	.	.	.	32dd\LL	.	.	.	.	.	.	.
.	.	.	.	.	.	.	32cc#X\JJJ)	.	.	.	.	.	.	.
!	!	!	!	!	!	!	! 	!	!	!	!	!	!	!
8F#X\	6	.	8F#X\	.	8a/	.	16dd`\KL	.	4r	.	4r	.	4r	4r
.	.	.	.	.	.	.	(8ccn\	.	.	.	.	.	.	.
8E\J	6	.	8E\J	.	8g/J	.	.	.	.	.	.	.	.	.
.	.	.	.	.	.	.	32b\LL	.	.	.	.	.	.	.
.	.	.	.	.	.	.	32a#X\JJJ)	.	.	.	.	.	.	.
!LO:LB:g=original	!	!	!	!	!	!	!	!	!	!	!	!	!	!
=11	=11	=11	=11	=11	=11	=11	=11	=11	=11	=11	=11	=11	=11	=11
!	!	!	!	!	!	!	! 	!	!LO:TX:a:t=1.	!	!LO:TX:a:t=1.	!	!	!
8D/L	6 #	.	8D/L	.	8f#X/L	.	16b`/KL	.	2r	.	2r	.	4r	4r
.	.	.	.	.	.	.	(8a/	.	.	.	.	.	.	.
8C/	6	.	8C/	.	8e/	.	.	.	.	.	.	.	.	.
.	.	.	.	.	.	.	32g/LL	.	.	.	.	.	.	.
.	.	.	.	.	.	.	32f#X/JJJ)	.	.	.	.	.	.	.
8BB/	6	.	8BB/	.	8d/	.	24g/LL	.	.	.	.	.	8r	8r
.	.	.	.	.	.	.	24a/	.	.	.	.	.	.	.
.	.	.	.	.	.	.	24b/JJ	.	.	.	.	.	.	.
!	!	!	!	!	!	!	!	!	!	!	!	!	!	!
*	*	*	*	*	*	*	*tuplet	*	*	*	*	*	*	*
!	!	!	!	!	!	!	!LO:TX:t=P:problem= problem klamry łukowej	!	!	!	!	!	!	!
8AA/J	6|	.	8AA/J	.	8f#X/J	.	24cc\LL	.	.	.	.	.	8a/	8cc\
.	.	.	.	.	.	.	24b\	.	.	.	.	.	.	.
.	.	.	.	.	.	.	24cc\JJ	.	.	.	.	.	.	.
!	!	!	!LO:LB:g=original	!	!	!	!	!	!	!	!	!	!LO:LB:g=original	!LO:LB:g=original
=12	=12	=12	=12	=12	=12	=12	=12	=12	=12	=12	=12	=12	=12	=12
!	!	!	!	!	!	!	!LO:TX:t=P:problem= problem klamry łukowej	!	!	!	!	!	!LO:TX:t=P:problem=mixed beam	!
*	*	*	*	*	*tuplet	*	*	*	*	*	*	*	*tuplet	*tuplet
!	!	!	!	!	!LO:TX:t=P:problem= problem klamry łukowej	!	!	!	!	!	!	!	!	!LO:TX:t=P:problem= problem klamry łukowej
8GG/L	.	.	8GG/L	.	24g/LL	.	24b\LL	.	8g\L	.	8gg\	.	8d/L	24b\LL
.	.	.	.	.	24a/	.	24cc\	.	.	.	.	.	.	24cc\
.	.	.	.	.	24b/JJ	.	24dd\JJ	.	.	.	.	.	.	24dd\JJ
!	!	!	!	!	!LO:TX:t=P:problem= problem klamry łukowej	!	!LO:TX:t=P:problem= problem klamry łukowej	!	!	!	!	!	!LO:TX:t=P:problem= problem klamry łukowej	!LO:TX:t=P:problem= problem klamry łukowej
8C/J	6	.	8C/J	.	24cc\LL	.	24ee\LL	.	8cc\J	.	4gg\	.	24cc\L	24ee\LL
.	.	.	.	.	24b\	.	24dd\	.	.	.	.	.	24b\	24dd\
.	.	.	.	.	24a\JJ	.	24cc\JJ	.	.	.	.	.	24a\JJ	24cc\JJ
!LO:TX:t=P:problem=mixed beam	!	!	!	!	!LO:TX:a:t=t.	!	!LO:TX:a:t=t.	!	!	!	!	!	!	!LO:TX:a:t=t.
.	.	.	.	.	8qqg/	.	8qqb/	.	.	.	.	.	8qqg/	8qqb/
8D\L	#	.	8D/L	.	4f#X/	.	4a/	.	4dd\	.	.	.	4f#X/	4a/
8DD/J	.	.	8DD/J	.	.	.	.	.	.	.	8ff#X\	.	.	.
*	*	*	*	*	*Xtuplet	*	*Xtuplet	*	*	*	*	*	*Xtuplet	*Xtuplet
!	!	!	!	!	!	!	!	!	!LO:LB:g=original	!	!	!	!	!
=13	=13	=13	=13	=13	=13	=13	=13	=13	=13	=13	=13	=13	=13	=13
4GG/	.	.	4GG/	.	4g/	.	4g/	.	4g/	.	4gg\	.	8r	16g/LL
.	.	.	.	.	.	.	.	.	.	.	.	.	.	(16cc/JJ
.	.	.	.	.	.	.	.	.	.	.	.	.	16g/LL	16b\LL)
.	.	.	.	.	.	.	.	.	.	.	.	.	(16cc/JJ	(16ee\JJ
4r	.	.	4r	.	8r	.	8r	.	4r	.	4r	.	16b\LL)	16dd\LL)
.	.	.	.	.	.	.	.	.	.	.	.	.	(16ee\JJ	(16gg\JJ
!	!	!	!	!	!	!	!	!LO:DY:b:t=p&colon;	!	!	!	!	!	!
!	!	!	!	!	!	!LO:DY:b:t=p&colon;	!	!	!	!	!	!	!	!
.	.	.	.	.	8d/	p	8d/	p	.	.	.	.	16dd\LL)	16ff#X\LL)
.	.	.	.	.	.	.	.	.	.	.	.	.	16aa\JJ	16ccc\JJ
!	!	!	!	!	!	!	!	!	!	!	!LO:LB:g=original	!	!	!
=14	=14	=14	=14	=14	=14	=14	=14	=14	=14	=14	=14	=14	=14	=14
!LO:TX:a:t=3.	!	!	!LO:TX:a:t=3.	!	!	!	!	!	!LO:TX:a:t=2.	!	!LO:TX:a:t=2.	!	!	!
*	*	*	*	*	*	*	*	*	*	*	*	*	*tuplet	*tuplet
!	!	!	!	!	!	!	!	!	!	!	!	!	!LO:TX:t=P:problem= problem klamry łukowej	!LO:TX:t=P:problem= problem klamry łukowej
2r	.	.	2r	.	8r	.	8r	.	2r	.	2r	.	24gg\LL	24bb\LL
.	.	.	.	.	.	.	.	.	.	.	.	.	24aa\	24ccc\
.	.	.	.	.	.	.	.	.	.	.	.	.	24bb\JJ	24ddd\JJ
.	.	.	.	.	16g/LL	.	16g/LL	.	.	.	.	.	4bb\	4ddd\
.	.	.	.	.	16f#X/JJ	.	16f#X/JJ	.	.	.	.	.	.	.
.	.	.	.	.	8g/L	.	8g/L	.	.	.	.	.	.	.
.	.	.	.	.	8c/J	.	8c/J	.	.	.	.	.	8aa\	8ccc\
!	!	!	!	!	!	!	!LO:LB:g=original	!	!	!	!	!	!	!
=15	=15	=15	=15	=15	=15	=15	=15	=15	=15	=15	=15	=15	=15	=15
!	!	!	!	!	!	!	!	!	!	!	!	!	!	!LO:TX:t=P:problem= problem klamry łukowej
2r	.	.	2r	.	8d/L	.	8d/L	.	2r	.	2r	.	8gg\	24bb\LL
.	.	.	.	.	.	.	.	.	.	.	.	.	.	24aa\
.	.	.	.	.	.	.	.	.	.	.	.	.	.	24gg\JJ
.	.	.	.	.	8e/	.	8e/	.	.	.	.	.	4gg\	16ccc\LL
.	.	.	.	.	.	.	.	.	.	.	.	.	.	16aa\JJ
!	!	!	!	!	!	!	!	!	!	!	!	!	!	!LO:TX:a:t=t.
.	.	.	.	.	8d/	.	8d/	.	.	.	.	.	.	4aa\
.	.	.	.	.	8d/J	.	8d/J	.	.	.	.	.	8ff#Xt\	.
*	*	*	*	*	*	*	*	*	*	*	*	*	*Xtuplet	*Xtuplet
=16	=16	=16	=16	=16	=16	=16	=16	=16	=16	=16	=16	=16	=16	=16
2r	.	.	2r	.	4G/	.	4G/	.	8r	.	8r	.	4gg\	4gg\
.	.	.	.	.	.	.	.	.	16.g/LL	.	16.dd\LL	.	.	.
.	.	.	.	.	.	.	.	.	32g/JJk	.	32dd\JJk	.	.	.
.	.	.	.	.	4r	.	4r	.	16g\LL	.	16dd\LL	.	4r	4r
.	.	.	.	.	.	.	.	.	16g\	.	16dd\	.	.	.
.	.	.	.	.	.	.	.	.	16cc\	.	16ee\	.	.	.
.	.	.	.	.	.	.	.	.	16dd\JJ	.	16ff\JJ	.	.	.
!	!	!	!	!	!LO:LB:g=original	!	!	!	!	!	!	!	!	!
=17	=17	=17	=17	=17	=17	=17	=17	=17	=17	=17	=17	=17	=17	=17
!	!	!	!	!	!	!	!	!	!LO:TX:t=P:problem=mixed beam	!	!LO:TX:t=P:problem=mixed beam	!	!LO:TX:a:t=4.	!LO:TX:a:t=4.
!	!	!	!	!	!	!	!	!LO:DY:b:t=for	!	!	!	!	!	!
4.C/	.	.	4.C/	.	8r	.	(32gg\KLL	f	8cc\L	.	8ee\L	.	2r	2r
.	.	.	.	.	.	.	16.ee\JJ)	.	.	.	.	.	.	.
!	!	!	!	!	!	!LO:DY:b:t=for&colon;	!	!	!	!	!	!	!	!
.	.	.	.	.	(32gg\KLL	f	(32b\KLL	.	16c/L	.	16c/L	.	.	.
.	.	.	.	.	16.ee\JJ)	.	16.cc\JJ)	.	.	.	.	.	.	.
.	.	.	.	.	.	.	.	.	16c/JJ	.	16c/JJ	.	.	.
.	.	.	.	.	(32b\KLL	.	(32d/KLL	.	8c/L	.	8c/L	.	.	.
.	.	.	.	.	16.cc\JJ)	.	16.e/JJ)	.	.	.	.	.	.	.
8C/	.	.	8C/	.	(32d/KLL	.	(32B/KLL	.	8c/J	.	8c/J	.	.	.
.	.	.	.	.	16.e/JJ)	.	16.c/JJ)	.	.	.	.	.	.	.
=18	=18	=18	=18	=18	=18	=18	=18	=18	=18	=18	=18	=18	=18	=18
!LO:TX:t=P:problem=mixed beam	!	!	!LO:TX:t=P:problem=mixed beam	!	!	!	!	!	!	!	!	!	!	!
.	.	.	.	.	.	.	8qqc/	.	.	.	.	.	.	.
8D\L	-6	.	8D\L	.	8f/L	.	4B-XT/	.	8r	.	8r	.	2r	2r
8E\	5	.	8E\	.	8g/J	.	.	.	16c/LL	.	16c/LL	.	.	.
.	.	.	.	.	.	.	.	.	16c/JJ	.	16c/JJ	.	.	.
8F\	.	.	8F\	.	4c/	.	4A/	.	8c/L	.	8c/L	.	.	.
8FF/J	.	.	8FF/J	.	.	.	.	.	8c/J	.	8c/J	.	.	.
=19	=19	=19	=19	=19	=19	=19	=19	=19	=19	=19	=19	=19	=19	=19
4.D\	#	.	4.D\	.	8r	.	(32aa\KLL	.	8r	.	8r	.	2r	2r
.	.	.	.	.	.	.	16.ff#X\JJ)	.	.	.	.	.	.	.
.	.	.	.	.	(32aa\KLL	.	(32cc#X\KLL	.	8dd\	.	8ff#X\	.	.	.
.	.	.	.	.	16.ff#X\JJ)	.	16.dd\JJ)	.	.	.	.	.	.	.
.	.	.	.	.	(32cc#X\KLL	.	(32e/KLL	.	4dd\	.	4ff#\	.	.	.
.	.	.	.	.	16.dd\JJ)	.	16.f#X/JJ)	.	.	.	.	.	.	.
8D\	.	.	8D\	.	(32e/KLL	.	(32c#X/KLL	.	.	.	.	.	.	.
.	.	.	.	.	16.f#X/JJ)	.	16.d/JJ)	.	.	.	.	.	.	.
=20	=20	=20	=20	=20	=20	=20	=20	=20	=20	=20	=20	=20	=20	=20
!	!	!	!	!	!	!	!	!	!	!	!	!	!	!
.	.	.	.	.	.	.	8qqd/	.	.	.	.	.	.	.
8E\L	6	.	8E\L	.	8g/L	.	4cn/	.	8r	.	8r	.	2r	2r
8F#X\	5	.	8F#X\	.	8a/J	.	.	.	16dd\LL	.	16dd\LL	.	.	.
.	.	.	.	.	.	.	.	.	16dd\JJ	.	16dd\JJ	.	.	.
!	!	!	!	!	!	!	!	!	!	!	!LO:LB:g=original	!	!	!
8G\	n	.	8G\	.	4d/	.	4B/	.	8dd\L	.	8dd\L	.	.	.
8GG/J	.	.	8GG/J	.	.	.	.	.	8g\J	.	8dd\J	.	.	.
!	!	!	!LO:LB:g=original	!	!	!	!	!	!	!	!	!	!	!
=21	=21	=21	=21	=21	=21	=21	=21	=21	=21	=21	=21	=21	=21	=21
8GG/L	.	.	8GG/L	.	(24B/LL	.	(24d/LL	.	8r	.	8r	.	8r	8r
.	.	.	.	.	24d/)	.	24g/)	.	.	.	.	.	.	.
!	!	!	!	!	! 	!	! 	!	!	!	!	!	!	!
.	.	.	.	.	24d`/JJ	.	24g`/JJ	.	.	.	.	.	.	.
8GG/	.	.	8GG/	.	(24d/LL	.	(24g/LL	.	16g/LL	.	16dd\LL	.	8dd\	8ff\
.	.	.	.	.	24g/)	.	24b/)	.	.	.	.	.	.	.
.	.	.	.	.	.	.	.	.	16g/JJ	.	16dd\JJ	.	.	.
!	!	!	!	!	! 	!	! 	!	!	!	!	!	!	!
.	.	.	.	.	24g`/JJ	.	24b`/JJ	.	.	.	.	.	.	.
8GG/	.	.	8GG/	.	(24g/LL	.	(24b\LL	.	8g/L	.	8dd\L	.	[4dd\	[4ff\
.	.	.	.	.	24b/)	.	24dd\)	.	.	.	.	.	.	.
!	!	!	!	!	! 	!	! 	!	!	!	!	!	!	!
.	.	.	.	.	24b`/JJ	.	24dd`\JJ	.	.	.	.	.	.	.
8GG/J	.	.	8GG/J	.	(24b\LL	.	(24dd\LL	.	8g/J	.	8dd\J	.	.	.
.	.	.	.	.	24dd\)	.	24ff\)	.	.	.	.	.	.	.
!	!	!	!	!	! 	!	! 	!	!	!	!	!	!	!
.	.	.	.	.	24dd`\JJ	.	24ff`\JJ	.	.	.	.	.	.	.
=22	=22	=22	=22	=22	=22	=22	=22	=22	=22	=22	=22	=22	=22	=22
!	!	!	!	!	!LO:TX:a:t=t.	!	!	!	!	!	!	!	!	!
8G\L	7	.	8G\L	.	2dd\	.	2ffT\	.	4g/	.	4dd\	.	16dd\LL]	16ff\LL]
.	.	.	.	.	.	.	.	.	.	.	.	.	16cc\	16ee\
8G\	.	.	8G\	.	.	.	.	.	.	.	.	.	16b\	16dd\
.	.	.	.	.	.	.	.	.	.	.	.	.	16a\JJ	16cc\JJ
8G\	.	.	8G\	.	.	.	.	.	4r	.	4r	.	16g/LL	16b/LL
.	.	.	.	.	.	.	.	.	.	.	.	.	16f/	16a/
8G\J	.	.	8G\J	.	.	.	.	.	.	.	.	.	16e/	16g/
.	.	.	.	.	.	.	.	.	.	.	.	.	16d/JJ	16f/JJ
=23	=23	=23	=23	=23	=23	=23	=23	=23	=23	=23	=23	=23	=23	=23
8c\L	.	.	8c\L	.	(24c/LL	.	(24e/LL	.	8r	.	8r	.	4c/	4e/
.	.	.	.	.	24e/)	.	24g/)	.	.	.	.	.	.	.
!	!	!	!	!	! 	!	! 	!	!	!	!	!	!	!
.	.	.	.	.	24e`/JJ	.	24g`/JJ	.	.	.	.	.	.	.
8c\	.	.	8c\	.	(24e/LL	.	(24g/LL	.	16cc\LL	.	16ee\LL	.	.	.
.	.	.	.	.	24g/)	.	24cc/)	.	.	.	.	.	.	.
.	.	.	.	.	.	.	.	.	16cc\JJ	.	16ee\JJ	.	.	.
!	!	!	!	!	! 	!	! 	!	!	!	!	!	!	!
.	.	.	.	.	24g`/JJ	.	24cc`/JJ	.	.	.	.	.	.	.
8c\	.	.	8c\	.	(24g/LL	.	(24cc\LL	.	8cc\L	.	8ee\L	.	[4ee\	[4gg\
.	.	.	.	.	24cc/)	.	24ee\)	.	.	.	.	.	.	.
!	!	!	!	!	! 	!	!LO:LB:g=original	!	!	!	!	!	!	!
.	.	.	.	.	24cc`/JJ	.	24ee`\JJ	.	.	.	.	.	.	.
8c\J	.	.	8c\J	.	(24cc\LL	.	(24ee\LL	.	8cc\J	.	8ee\J	.	.	.
.	.	.	.	.	24ee\)	.	24gg\)	.	.	.	.	.	.	.
!	!	!	!	!	! 	!	! 	!	!	!	!	!	!	!
.	.	.	.	.	24ee`\JJ	.	24gg`\JJ	.	.	.	.	.	.	.
!LO:LB:g=original	!	!	!	!	!	!	!	!	!	!	!	!	!	!
=24	=24	=24	=24	=24	=24	=24	=24	=24	=24	=24	=24	=24	=24	=24
!	!	!	!	!	!LO:TX:a:t=t.	!	!	!	!	!	!	!	!	!
8C/L	.	.	8C/L	.	2ee\	.	2ggT\	.	4cc\	.	4ee\	.	16ee\LL]	16gg\LL]
.	.	.	.	.	.	.	.	.	.	.	.	.	16dd\	16ff\
8C/	.	.	8C/	.	.	.	.	.	.	.	.	.	16cc\	16ee\
.	.	.	.	.	.	.	.	.	.	.	.	.	16b\JJ	16dd\JJ
8C/	.	.	8C/	.	.	.	.	.	4r	.	4r	.	16a/LL	16cc\LL
.	.	.	.	.	.	.	.	.	.	.	.	.	16g/	16b\
8C/J	.	.	8C/J	.	.	.	.	.	.	.	.	.	16f/	16a\
.	.	.	.	.	.	.	.	.	.	.	.	.	16e/JJ	16g\JJ
=25	=25	=25	=25	=25	=25	=25	=25	=25	=25	=25	=25	=25	=25	=25
8BB/L	6 5	.	8BB/L	.	(24d/LL	.	(24g/LL	.	8r	.	8r	.	4d/	4f/
.	.	.	.	.	24g/)	.	24b/)	.	.	.	.	.	.	.
!	!	!	!	!	! 	!	! 	!	!	!	!	!	!	!
.	.	.	.	.	24g`/JJ	.	24b`/JJ	.	.	.	.	.	.	.
8BB/	.	.	8BB/	.	(24g/LL	.	(24b\LL	.	16dd\LL	.	16ff\LL	.	.	.
.	.	.	.	.	24b/)	.	24dd\)	.	.	.	.	.	.	.
.	.	.	.	.	.	.	.	.	16dd\JJ	.	16ff\JJ	.	.	.
!	!	!	!	!	! 	!	! 	!	!	!	!	!	!	!
.	.	.	.	.	24b`/JJ	.	24dd`\JJ	.	.	.	.	.	.	.
!	!	!	!	!	!	!	!	!	!	!	!	!	!LO:LB:g=original	!
8BB/	7 5	.	8BB/	.	(24b\LL	.	(24dd\LL	.	8dd\L	.	8ff\L	.	[4ff\	[4aa\
.	.	.	.	.	24dd\)	.	24ff\)	.	.	.	.	.	.	.
!	!	!	!	!	!LO:LB:g=original	!	! 	!	!	!	!	!	!	!
.	.	.	.	.	24dd\`JJ	.	24ff`\JJ	.	.	.	.	.	.	.
8BB/J	.	.	8BB/J	.	(24dd\LL	.	(24ff\LL	.	8dd\J	.	8ff\J	.	.	.
.	.	.	.	.	24ff\)	.	24aa\)	.	.	.	.	.	.	.
!	!	!	!	!	! 	!	! 	!	!	!	!	!	!	!
.	.	.	.	.	24ff`\JJ	.	24aa`\JJ	.	.	.	.	.	.	.
!	!	!	!	!	!	!	!	!	!LO:LB:g=original	!	!	!	!	!
=26	=26	=26	=26	=26	=26	=26	=26	=26	=26	=26	=26	=26	=26	=26
!	!	!	!	!	!LO:TX:a:t=t.	!	!	!	!	!	!	!	!	!
8BB/L	7 5	.	8BB/L	.	2ff\	.	2aaT\	.	4dd\	.	4ff\	.	16ff\LL]	16aa\LL]
.	.	.	.	.	.	.	.	.	.	.	.	.	16ee\	16gg\
8BB/	.	.	8BB/	.	.	.	.	.	.	.	.	.	16dd\	16ff\
.	.	.	.	.	.	.	.	.	.	.	.	.	16cc\JJ	16ee\JJ
!	!	!	!	!	!	!	!	!	!	!	!	!	!	!LO:LB:g=original
8BB/	.	.	8BB/	.	.	.	.	.	4r	.	4r	.	16b/LL	16dd\LL
.	.	.	.	.	.	.	.	.	.	.	.	.	16a/	16cc\
8BB/J	.	.	8BB/J	.	.	.	.	.	.	.	.	.	16g/	16b\
.	.	.	.	.	.	.	.	.	.	.	.	.	16f/JJ	16a\JJ
=27	=27	=27	=27	=27	=27	=27	=27	=27	=27	=27	=27	=27	=27	=27
!LO:TX:t=P:problem=mixed beam	!	!	!LO:TX:t=P:problem=mixed beam	!	!	!	!LO:TX:t=P:problem= problem klamry łukowej	!	!	!	!	!	!	!LO:TX:t=P:problem=mixed beam
*	*	*	*	*	*	*	*tuplet	*	*	*	*	*	*tuplet	*tuplet
!	!	!	!	!	!	!	!	!	!	!	!	!	!	!
8C\L	.	.	8C/L	.	16ee\LL	.	24gg\LL	.	8cc\L	.	8ee\L	.	8e/L	16g/LL
.	.	.	.	.	.	.	24ff\	.	.	.	.	.	.	.
.	.	.	.	.	16dd\JJ	.	.	.	.	.	.	.	.	16ee\JJ
.	.	.	.	.	.	.	24ee\JJ	.	.	.	.	.	.	.
!	!	!	!	!	!	!	!LO:TX:t=P:problem= problem klamry łukowej	!	!	!	!	!	!LO:TX:t=P:problem= problem klamry łukowej	!LO:TX:t=P:problem= problem klamry łukowej
8F\	6	.	8F/	.	4cc\	.	24aa\LL	.	8dd\	.	8ff\	.	24a/L	24ff\LL
.	.	.	.	.	.	.	24gg\	.	.	.	.	.	24g/	24ee\
.	.	.	.	.	.	.	24ff\JJ	.	.	.	.	.	24f/JJ	24dd\JJ
8G\	6 4	.	8G/	.	.	.	8ee\L	.	8cc\	.	8ee\	.	8e/L	8cc\L
!	!	!	!	!	!LO:TX:a:t=t.	!	!LO:TX:a:t=t.	!	!	!	!LO:TX:a:t=t.	!	!	!LO:TX:a:t=t.
8GG/J	5 3	.	8GG/J	.	8b\	.	8dd\J	.	8g\J	.	8dd\J	.	8dT/J	8b\J
*	*	*	*	*	*	*	*Xtuplet	*	*	*	*	*	*Xtuplet	*Xtuplet
=28	=28	=28	=28	=28	=28	=28	=28	=28	=28	=28	=28	=28	=28	=28
!	!	!	!	!	!	!	!	!	!	!	!LO:TX:t=P:problem=mixed beam	!	!	!
4C/	.	.	4C/	.	4cc\	.	4cc\	.	8e/L	.	8cc/L	.	4e/	4cc\
.	.	.	.	.	.	.	.	.	8cc/J	.	8ee\J	.	.	.
4r	.	.	4r	.	4r	.	4r	.	4g/	.	4dd\	.	16r	16r
.	.	.	.	.	.	.	.	.	.	.	.	.	16dd\LL	16ff\LL
.	.	.	.	.	.	.	.	.	.	.	.	.	16cc\	16ee\
.	.	.	.	.	.	.	.	.	.	.	.	.	16b\JJ	16dd\JJ
=29	=29	=29	=29	=29	=29	=29	=29	=29	=29	=29	=29	=29	=29	=29
!LO:TX:a:t=1.	!	!	!LO:TX:a:t=1.	!	!LO:TX:a:t=1.	!	!LO:TX:a:t=1.	!	!	!	!	!	!	!
.	.	.	.	.	.	.	.	.	.	.	.	.	8qqb/	8qqdd/
2r	.	.	2r	.	2r	.	2r	.	8r	.	8r	.	4cc\	4ee\
*	*	*	*	*	*	*	*	*	*	*	*tuplet	*	*	*
!	!	!	!	!	!	!	!	!	!	!	!LO:TX:t=P:problem= problem klamry łukowej	!	!	!
.	.	.	.	.	.	.	.	.	8cc\	.	24ee\LL	.	.	.
.	.	.	.	.	.	.	.	.	.	.	24ff\	.	.	.
.	.	.	.	.	.	.	.	.	.	.	24gg\JJ	.	.	.
.	.	.	.	.	.	.	.	.	4g/	.	4dd\	.	16r	16r
.	.	.	.	.	.	.	.	.	.	.	.	.	16ff\LL	16aa\LL
.	.	.	.	.	.	.	.	.	.	.	.	.	16ee\	16gg\
.	.	.	.	.	.	.	.	.	.	.	.	.	16dd\JJ	16ff\JJ
=30	=30	=30	=30	=30	=30	=30	=30	=30	=30	=30	=30	=30	=30	=30
*	*	*	*	*	*	*	*	*	*	*	*Xtuplet	*	*	*tuplet
4C/	.	.	4C/	.	24cc`\LL	.	24ee`\LL	.	4cc\	.	4ee\	.	24cc\LL	24ee\LL
!	!	!	!	!	! 	!	! 	!	!	!	!	!	!	!
.	.	.	.	.	24dd`\	.	24ff`\	.	.	.	.	.	24dd\	24ff\
!	!	!	!	!	! 	!	! 	!	!	!	!	!	!	!
.	.	.	.	.	24ee`\JJ	.	24gg`\JJ	.	.	.	.	.	24ee\JJ	24gg\JJ
*	*	*	*	*	*	*	*	*	*	*	*	*	*	*Xtuplet
.	.	.	.	.	24ff`\LL	.	24aa`\LL	.	.	.	.	.	24ff\LL	24aa\LL
!	!	!	!	!	! 	!	! 	!	!	!	!	!	!	!
.	.	.	.	.	24gg`\	.	24bb`\	.	.	.	.	.	24gg\	24bb\
!	!	!	!	!	! 	!	! 	!	!	!	!	!	!	!
.	.	.	.	.	24aa`\JJ	.	24ccc`\JJ	.	.	.	.	.	24aa\JJ	24ccc\JJ
!	!	!	!	!	! 	!	! 	!	!	!	!	!	!	!
8r	.	.	8r	.	24gg`\LL	.	24bb`\LL	.	4r	.	4r	.	24gg\LL	24bb\LL
!	!	!	!	!	! 	!	! 	!	!	!	!	!	!	!
.	.	.	.	.	24ff`\	.	24aa`\	.	.	.	.	.	24ff\	24aa\
!	!	!	!	!	! 	!	! 	!	!	!	!	!	!	!
.	.	.	.	.	24ee`\JJ	.	24gg`\JJ	.	.	.	.	.	24ee\JJ	24gg\JJ
!	!	!	!	!	! 	!	! 	!	!	!	!	!	!	!
8G\	7	.	8G\	.	24dd`\LL	.	24ff`\LL	.	.	.	.	.	24dd\LL	24ff\LL
!	!	!	!	!	! 	!	! 	!	!	!	!	!	!	!
.	.	.	.	.	24cc`\	.	24ee`\	.	.	.	.	.	24cc\	24ee\
!	!	!	!	!	! 	!	! 	!	!	!	!	!	!	!
.	.	.	.	.	24b`\JJ	.	24dd`\JJ	.	.	.	.	.	24b\JJ	24dd\JJ
=31	=31	=31	=31	=31	=31	=31	=31	=31	=31	=31	=31	=31	=31	=31
!	!	!	!	!	!	!	!	!	!	!	!	!	!	!
8A\L	7	.	8A\L	.	8r	.	8.cc\L	.	4cc\	.	8.cc\L	.	8cc\L	8.cc\L
8E\	6	.	8E\	.	4cc\	.	.	.	.	.	.	.	8g/	.
.	.	.	.	.	.	.	16dd\Jk	.	.	.	16dd\Jk	.	.	16dd\Jk
!	!	!	!	!	!	!	!LO:TX:a:t=t.	!	!	!	!LO:TX:a:t=t	!	!	!LO:TX:a:t=t.
8F\	6 5	.	8F\	.	.	.	4dd\	.	8r	.	4dd\	.	8a/	4dd\
!	!	!	!	!	!LO:TX:a:t=t.	!	!	!	!	!	!	!	!	!
8G\J	.	.	8G\J	.	8b\	.	.	.	8g/	.	.	.	8g/J	.
=32	=32	=32	=32	=32	=32	=32	=32	=32	=32	=32	=32	=32	=32	=32
!LO:TX:t=P:problem=mixed beam	!	!	!	!	!	!	!	!	!LO:TX:t=P:problem=mixed beam	!	!	!	!	!
8C/L	.	.	8C\L	.	8cc\L	.	8cc\L	.	8e/L	.	8cc\L	.	8cc\L	8cc\L
16.c\L	.	.	16.c\L	.	16.cc\L	.	16.cc\L	.	16.cc\L	.	16.cc\L	.	16.cc\L	16.cc\L
32c\JJk	.	.	32c\JJk	.	32cc\JJk	.	32cc\JJk	.	32cc\JJk	.	32cc\JJk	.	32cc\JJk	32cc\JJk
! 	!	!	!	!	!	!	!	!	!	!	!	!	!	!
16.G`\LL	.	.	16.G\LL	.	16.g/LL	.	16.g/LL	.	16.g/LL	.	16.g/LL	.	16.g/LL	16.g/LL
32c\JJk	.	.	32c\JJk	.	32cc/JJk	.	32cc/K	.	32cc/JJk	.	32cc/JJk	.	32cc/JJk	32cc/JJk
! 	!	!	!	!	!	!	!	!	!	!	!	!	!	!
16.E`\LL	.	.	16.E\LL	.	16.e/LL	.	16.e/	.	16.e/LL	.	16.e/LL	.	16.e/LL	16.e/LL
32G\JJk	.	.	32G\JJk	.	32g/JJk	.	32g/JJk	.	32g/JJk	.	32g/JJk	.	32g/JJk	32g/JJk
!	!	!	!	!	!	!	!	!	!	!	!LO:LB:g=original	!	!	!
=33	=33	=33	=33	=33	=33	=33	=33	=33	=33	=33	=33	=33	=33	=33
4C;</	.	.	4C;</	.	4c;</	.	4c;</	.	4c;</	.	4c;</	.	4c;</	4c;</
4r	.	.	4r	.	4r	.	4r	.	4r	.	8r	.	4r	4r
!	!	!	!	!	!	!	!	!	!	!	!LO:TX:b:t=Solo.	!	!	!
.	.	.	.	.	.	.	.	.	.	.	(32cc\LLL	.	.	.
.	.	.	.	.	.	.	.	.	.	.	32dd\	.	.	.
.	.	.	.	.	.	.	.	.	.	.	32ee\	.	.	.
.	.	.	.	.	.	.	.	.	.	.	32ff\JJJ)	.	.	.
!	!	!	!	!	!	!	!LO:LB:g=original	!	!	!	!	!	!LO:LB:g=original	!
=34||	=34||	=34||	=34||	=34||	=34||	=34||	=34||	=34||	=34||	=34||	=34||	=34||	=34||	=34||
!LO:TX:a:t=3.	!	!	!LO:TX:a:t=3.	!	!	!	!	!	!	!	!	!	!LO:TX:a:t=3.	!LO:TX:a:t=3.
2r	.	.	2r	.	8r	.	8ee\L	.	8r	.	8gg\L	.	2r	2r
.	.	.	.	.	8c/L	.	[8ee\J	.	8c/L	.	[8gg\J	.	.	.
.	.	.	.	.	8e/	.	24ee\LL]	.	8e/	.	24gg\LL]	.	.	.
.	.	.	.	.	.	.	24cc\	.	.	.	24ee\	.	.	.
.	.	.	.	.	.	.	24ee\JJ	.	.	.	24gg\JJ	.	.	.
.	.	.	.	.	8g/J	.	24dd\LL	.	8g/J	.	24ff\LL	.	.	.
.	.	.	.	.	.	.	24b\	.	.	.	24dd\	.	.	.
.	.	.	.	.	.	.	24dd\JJ	.	.	.	24ff\JJ	.	.	.
=35	=35	=35	=35	=35	=35	=35	=35	=35	=35	=35	=35	=35	=35	=35
!	!	!	!	!	!	!	!	!	!	!	!	!	!	!
2r	.	.	2r	.	8cc\L	.	24cc\LL	.	8cc\L	.	24ee\LL	.	2r	2r
.	.	.	.	.	.	.	24aa\	.	.	.	24ccc\	.	.	.
.	.	.	.	.	.	.	24ff\J	.	.	.	24aa\J	.	.	.
.	.	.	.	.	.	.	8qqff/	.	.	.	.	.	.	.
.	.	.	.	.	8c/	.	[8ee\J	.	8c/	.	[8gg\J	.	.	.
.	.	.	.	.	8e/	.	24ee\LL]	.	8e/	.	24gg\LL]	.	.	.
.	.	.	.	.	.	.	24cc\	.	.	.	24ee\	.	.	.
.	.	.	.	.	.	.	24ee\JJ	.	.	.	24gg\JJ	.	.	.
.	.	.	.	.	8g/J	.	24dd\LL	.	8g/J	.	24ff\LL	.	.	.
.	.	.	.	.	.	.	24b\	.	.	.	24dd\	.	.	.
.	.	.	.	.	.	.	24dd\JJ	.	.	.	24ff\JJ	.	.	.
=36	=36	=36	=36	=36	=36	=36	=36	=36	=36	=36	=36	=36	=36	=36
*	*	*	*	*	*	*	*tuplet	*	*	*	*	*	*	*
!	!	!	!	!	!	!	!LO:TX:t=P:problem= problem klamry łukowej	!	!	!	!	!	!	!
2r	.	.	2r	.	8cc\L	.	24cc\LL	.	8cc\L	.	24ee\LL	.	2r	2r
.	.	.	.	.	.	.	24b\	.	.	.	24dd\	.	.	.
.	.	.	.	.	.	.	24cc\JJ	.	.	.	24ee\JJ	.	.	.
!	!	!	!	!	!	!	!LO:TX:t=P:problem= problem klamry łukowej	!	!	!	!	!	!	!
.	.	.	.	.	8g\J	.	24dd\LL	.	8g\J	.	24ff\LL	.	.	.
.	.	.	.	.	.	.	24cc\	.	.	.	24gg\	.	.	.
.	.	.	.	.	.	.	24b\JJ	.	.	.	24dd\JJ	.	.	.
!	!	!	!	!	!	!	!LO:TX:a:t=t.	!	!	!	!LO:TX:a:t=t.	!	!	!
.	.	.	.	.	.	.	8qqb/	.	.	.	8qqdd/	.	.	.
.	.	.	.	.	8e/L	.	4cc\	.	8e/L	.	4ee\	.	.	.
.	.	.	.	.	8c/J	.	.	.	8c/J	.	.	.	.	.
*	*	*	*	*	*	*	*Xtuplet	*	*	*	*	*	*	*
!	!	!	!	!	!LO:LB:g=original	!	!	!	!	!	!	!	!	!
!LO:LB:g=original	!	!	!	!	!	!	!	!	!LO:LB:g=original	!	!	!	!	!
=37	=37	=37	=37	=37	=37	=37	=37	=37	=37	=37	=37	=37	=37	=37
!	!	!	!	!	!	!	!	!	!	!	!	!	!	!LO:TX:b:t=Solo.
.	.	.	.	.	.	.	.	.	.	.	8qqee/	.	.	.
8r	.	.	8r	.	8g/L	.	4b/	.	8g/L	.	4dd\	.	8b/L	8dd\L
!	!	!LO:DY:b:t=pia&colon;	!	!LO:DY:b:t=pia&colon;	!	!	!	!	!	!	!	!	!	!
8GG/L	.	p	8GG/L	p	8G/J	.	.	.	8G/J	.	.	.	[8b/J	[8dd\J
8BB/	6	.	8BB/	.	4r	.	4r	.	4r	.	4r	.	24b/LL]	24dd\LL]
.	.	.	.	.	.	.	.	.	.	.	.	.	24g/	24b\
.	.	.	.	.	.	.	.	.	.	.	.	.	24b/JJ	24dd\JJ
8D/J	7 3	.	8D/J	.	.	.	.	.	.	.	.	.	24a/LL	24cc\LL
.	.	.	.	.	.	.	.	.	.	.	.	.	24f#X/	24a\
.	.	.	.	.	.	.	.	.	.	.	.	.	24a/JJ	24cc\JJ
!	!	!	!	!	!	!	!	!	!	!	!	!	!	!LO:LB:g=original
=38	=38	=38	=38	=38	=38	=38	=38	=38	=38	=38	=38	=38	=38	=38
!	!	!	!	!	!LO:TX:a:t=10.	!	!LO:TX:a:t=10.	!	!LO:TX:a:t=10.	!	!LO:TX:a:t=10.	!	!	!
8G\L	.	.	8G\L	.	2r	.	2r	.	2r	.	2r	.	24g/LL	24b\LL
.	.	.	.	.	.	.	.	.	.	.	.	.	24ee/	24gg\
.	.	.	.	.	.	.	.	.	.	.	.	.	24cc/J	24ee\J
.	.	.	.	.	.	.	.	.	.	.	.	.	8qqcc/	8qqee/
8GG/	.	.	8GG/	.	.	.	.	.	.	.	.	.	[8b/J	[8dd\J
8BB/	6	.	8BB/	.	.	.	.	.	.	.	.	.	24b/LL]	24dd\LL]
.	.	.	.	.	.	.	.	.	.	.	.	.	24g/	24b\
.	.	.	.	.	.	.	.	.	.	.	.	.	24b/JJ	24dd\JJ
8D/J	7 #	.	8D/J	.	.	.	.	.	.	.	.	.	24a/LL	24cc\LL
.	.	.	.	.	.	.	.	.	.	.	.	.	24f#X/	24a\
.	.	.	.	.	.	.	.	.	.	.	.	.	24a/JJ	24cc\JJ
=39	=39	=39	=39	=39	=39	=39	=39	=39	=39	=39	=39	=39	=39	=39
*	*	*	*	*	*	*	*	*	*	*	*	*	*	*tuplet
!	!	!	!	!	!	!	!	!	!	!	!	!	!LO:TUP:b:problem=klamra łukowa	!LO:TX:t=P:problem= problem klamry łukowej
8G\L	.	.	8G\L	.	2r	.	2r	.	2r	.	2r	.	24g/LL	24b\LL
.	.	.	.	.	.	.	.	.	.	.	.	.	24f#X/	24a\
.	.	.	.	.	.	.	.	.	.	.	.	.	24g/JJ	24b\JJ
*	*	*	*	*	*	*	*	*	*	*	*	*	*	*Xtuplet
8F#X\	6 5	.	8F#X\	.	.	.	.	.	.	.	.	.	16a/LL	24cc\LL
.	.	.	.	.	.	.	.	.	.	.	.	.	.	24dd\
.	.	.	.	.	.	.	.	.	.	.	.	.	16d/JJ	.
.	.	.	.	.	.	.	.	.	.	.	.	.	.	24a\JJ
!	!	!	!	!	!	!	!	!	!	!	!	!	!LO:TX:a:t=t.	!LO:TX:a:t=t.
.	.	.	.	.	.	.	.	.	.	.	.	.	.	8qqa/
8G\	.	.	8G\	.	.	.	.	.	.	.	.	.	4g/	4b/
8C#X\J	7 5	.	8C#X\J	.	.	.	.	.	.	.	.	.	.	.
=40	=40	=40	=40	=40	=40	=40	=40	=40	=40	=40	=40	=40	=40	=40
.	.	.	.	.	.	.	.	.	.	.	.	.	8qqg/	.
8D\L	#	.	8D\L	.	2r	.	2r	.	2r	.	2r	.	4f#X/	4a/
8E\	.	.	8E\	.	.	.	.	.	.	.	.	.	.	.
8F#X\	.	.	8F#X\	.	.	.	.	.	.	.	.	.	4r	8r
8D\J	.	.	8D\J	.	.	.	.	.	.	.	.	.	.	8a/
=41	=41	=41	=41	=41	=41	=41	=41	=41	=41	=41	=41	=41	=41	=41
8G\L	.	.	8G\L	.	2r	.	2r	.	2r	.	2r	.	4r	(16b\LL
.	.	.	.	.	.	.	.	.	.	.	.	.	.	16a\)
8F#X\	.	.	8F#X\	.	.	.	.	.	.	.	.	.	.	(16a\
.	.	.	.	.	.	.	.	.	.	.	.	.	.	16b\JJ)
8G\	.	.	8G\	.	.	.	.	.	.	.	.	.	8r	(16b\LL
.	.	.	.	.	.	.	.	.	.	.	.	.	.	16cc#X\)
8A\J	#	.	8A\J	.	.	.	.	.	.	.	.	.	8e/	(16cc#\
.	.	.	.	.	.	.	.	.	.	.	.	.	.	16dd\JJ)
=42	=42	=42	=42	=42	=42	=42	=42	=42	=42	=42	=42	=42	=42	=42
8D/L	#	.	8D/L	.	2r	.	2r	.	2r	.	2r	.	(16f#X/LL	4.dd\
.	.	.	.	.	.	.	.	.	.	.	.	.	16e/)	.
8C#X/	.	.	8C#X/	.	.	.	.	.	.	.	.	.	(16e/	.
.	.	.	.	.	.	.	.	.	.	.	.	.	16f#/JJ)	.
8D/	.	.	8D/	.	.	.	.	.	.	.	.	.	(16f#/LL	.
.	.	.	.	.	.	.	.	.	.	.	.	.	16g#X/)	.
8E/J	#	.	8E/J	.	.	.	.	.	.	.	.	.	(16g#/	8b\
.	.	.	.	.	.	.	.	.	.	.	.	.	16a/JJ)	.
!	!	!	!LO:LB:g=original	!	!	!	!	!	!	!	!	!	!	!
=43	=43	=43	=43	=43	=43	=43	=43	=43	=43	=43	=43	=43	=43	=43
8A\L	n	.	8A\L	.	2r	.	2r	.	2r	.	2r	.	4.a/	(16ccn\LL
.	.	.	.	.	.	.	.	.	.	.	.	.	.	16b\)
8G#X\	.	.	8G#X\	.	.	.	.	.	.	.	.	.	.	(16b\
.	.	.	.	.	.	.	.	.	.	.	.	.	.	16cc\JJ)
8A\	.	.	8A\	.	.	.	.	.	.	.	.	.	.	(16cc\LL
.	.	.	.	.	.	.	.	.	.	.	.	.	.	16dd#X\)
8B\J	#	.	8B\J	.	.	.	.	.	.	.	.	.	8f#X/	(16dd#\
.	.	.	.	.	.	.	.	.	.	.	.	.	.	16ee\JJ)
=44	=44	=44	=44	=44	=44	=44	=44	=44	=44	=44	=44	=44	=44	=44
8E\L	n	.	8E\L	.	2r	.	2r	.	2r	.	2r	.	(16gn/LL	4.ee\
.	.	.	.	.	.	.	.	.	.	.	.	.	16f#X/)	.
8D#X\	.	.	8D#X\	.	.	.	.	.	.	.	.	.	(16f#/	.
.	.	.	.	.	.	.	.	.	.	.	.	.	16g/JJ)	.
8E\	.	.	8E\	.	.	.	.	.	.	.	.	.	(16g/LL	.
.	.	.	.	.	.	.	.	.	.	.	.	.	16a#X/)	.
8F#X\J	#	.	8F#X\J	.	.	.	.	.	.	.	.	.	(16a#/	8cc#X\
.	.	.	.	.	.	.	.	.	.	.	.	.	16b/JJ)	.
!	!	!	!	!	!	!	!	!	!	!	!	!	!LO:LB:g=original	!
=45	=45	=45	=45	=45	=45	=45	=45	=45	=45	=45	=45	=45	=45	=45
!	!	!	!	!	!	!	!	!	!	!	!	!	!	!
8B\L	5|	.	8B\L	.	2r	.	2r	.	2r	.	2r	.	8.b\L	8.dd\L
*custos:AA	*	*	*	*	*	*	*	*	*	*	*	*	*	*
8BB/J	.	.	8BB/J	.	.	.	.	.	.	.	.	.	.	.
.	.	.	.	.	.	.	.	.	.	.	.	.	16cc#X\Jk	16ee\Jk
!LO:LB:g=original	!	!	!	!	!	!	!	!	!	!	!	!	!LO:TX:a:t=t.	!
8AA/L	#	.	8AA/L	.	.	.	.	.	.	.	.	.	8.cc#\L	8.eet\L
8A\J	.	.	8A\J	.	.	.	.	.	.	.	.	.	.	.
.	.	.	.	.	.	.	.	.	.	.	.	.	32b\LL	32dd\LL
.	.	.	.	.	.	.	.	.	.	.	.	.	32cc#\JJJ	32ee\JJJ
=46	=46	=46	=46	=46	=46	=46	=46	=46	=46	=46	=46	=46	=46	=46
!	!	!	!	!	!	!	!	!	!	!	!	!	!	!LO:TX:a:t=t.
8d\L	#	.	8d\L	.	2r	.	2r	.	2r	.	2r	.	8dd\L	8.ff#X\L
8D\	7	.	8D\	.	.	.	.	.	.	.	.	.	8ccn\	.
.	.	.	.	.	.	.	.	.	.	.	.	.	.	32ee\LL
.	.	.	.	.	.	.	.	.	.	.	.	.	.	32dd\JJJ
8E\	5	.	8E\	.	.	.	.	.	.	.	.	.	8b\	8gg\L
8F#X\J	6 5	.	8F#X\J	.	.	.	.	.	.	.	.	.	8a\J	8cc\J
!	!	!	!	!	!	!	!	!	!	!	!	!	!	!LO:LB:g=original
=47	=47	=47	=47	=47	=47	=47	=47	=47	=47	=47	=47	=47	=47	=47
8G\L	.	.	8G\L	.	2r	.	2r	.	2r	.	2r	.	8g/	32b\LLL
.	.	.	.	.	.	.	.	.	.	.	.	.	.	32ee\
.	.	.	.	.	.	.	.	.	.	.	.	.	.	32dd\
.	.	.	.	.	.	.	.	.	.	.	.	.	.	32cc\JJJ
8BB\	6	.	8BB\	.	.	.	.	.	.	.	.	.	4g/	24b/LL
.	.	.	.	.	.	.	.	.	.	.	.	.	.	24a/
.	.	.	.	.	.	.	.	.	.	.	.	.	.	24g/JJ
.	.	.	.	.	.	.	.	.	.	.	.	.	.	8qqg/
8C\	6 5	.	8C\	.	.	.	.	.	.	.	.	.	.	4aT/
!	!	!	!	!	!	!	!	!	!	!	!	!	!LO:TX:a:t=t.	!
8D\J	#	.	8D\J	.	.	.	.	.	.	.	.	.	8f#X/	.
=48	=48	=48	=48	=48	=48	=48	=48	=48	=48	=48	=48	=48	=48	=48
!	!	!LO:DY:b:t=for&colon;	!	!LO:DY:b:t=for	!	!	!	!	!	!	!	!	!	!
4GG/	.	f	4GG/	f	8gg\L	.	8bb\L	.	8r	.	8r	.	8g/	8g/
.	.	.	.	.	[8gg\J	.	[8bb\J	.	16dd\LL	.	4gg\	.	4gg\	4bb\
.	.	.	.	.	.	.	.	.	16dd\JJ	.	.	.	.	.
8r	.	.	8r	.	24gg\LL]	.	24bb\LL]	.	8dd\L	.	.	.	.	.
.	.	.	.	.	24ee\	.	24gg\	.	.	.	.	.	.	.
.	.	.	.	.	24gg\JJ	.	24bb\JJ	.	.	.	.	.	.	.
8D\	#	.	8D/	.	24ff#X\LL	.	24aa\LL	.	8dd\J	.	8ff#X\	.	8ff#X\	8aa\
.	.	.	.	.	24dd\	.	24ff#X\	.	.	.	.	.	.	.
.	.	.	.	.	24ff#\JJ	.	24aa\JJ	.	.	.	.	.	.	.
=49	=49	=49	=49	=49	=49	=49	=49	=49	=49	=49	=49	=49	=49	=49
!	!	!	!	!	!	!	!	!	!LO:TX:a:t=1.	!	!LO:TX:a:t=1.	!	!	!
4E\	.	.	4E\	.	8ee\L	.	8gg\L	.	2r	.	2r	.	8ee\	8gg\
.	.	.	.	.	[8ee\J	.	[8gg\J	.	.	.	.	.	4ee\	4gg\
8r	.	.	8r	.	24ee\LL]	.	24gg\LL]	.	.	.	.	.	.	.
.	.	.	.	.	24cc\	.	24ee\	.	.	.	.	.	.	.
.	.	.	.	.	24ee\JJ	.	24gg\JJ	.	.	.	.	.	.	.
8BB/	5|	.	8BB/	.	24dd\LL	.	24ff#X\LL	.	.	.	.	.	8dd\	8ff#X\
.	.	.	.	.	24b\	.	24dd\	.	.	.	.	.	.	.
.	.	.	.	.	24dd\JJ	.	24ff#\JJ	.	.	.	.	.	.	.
=50	=50	=50	=50	=50	=50	=50	=50	=50	=50	=50	=50	=50	=50	=50
4C/	.	.	4C/	.	8cc\L	.	8ee\L	.	8r	.	8r	.	8cc\	8ee\
.	.	.	.	.	[8cc\J	.	[8ee\J	.	16g/LL	.	16g/LL	.	4cc\	4ee\
.	.	.	.	.	.	.	.	.	16g/JJ	.	16g/JJ	.	.	.
8r	.	.	8r	.	24cc\LL]	.	24ee\LL]	.	8g/L	.	8g/L	.	.	.
.	.	.	.	.	24a\	.	24cc\	.	.	.	.	.	.	.
.	.	.	.	.	24cc\JJ	.	24ee\JJ	.	.	.	.	.	.	.
8GG/	.	.	8GG/	.	24b/LL	.	24dd\LL	.	8g/J	.	8g/J	.	8b\	8dd\
.	.	.	.	.	24g/	.	24b\	.	.	.	.	.	.	.
.	.	.	.	.	24b/JJ	.	24dd\JJ	.	.	.	.	.	.	.
=51	=51	=51	=51	=51	=51	=51	=51	=51	=51	=51	=51	=51	=51	=51
*	*	*	*	*	*	*	*tuplet	*	*	*	*	*	*	*tuplet
!	!	!	!	!	!	!	!LO:TX:t=P:problem= problem klamry łukowej	!	!	!	!	!	!	!
.	.	.	.	.	.	.	8qqdd/	.	.	.	.	.	.	.
8AA/L	6|	.	8AA/L	.	8f#X/	.	24cc\LL	.	8dd\L	.	8ff#X\	.	8a/	8cc\L
.	.	.	.	.	.	.	24b\	.	.	.	.	.	.	.
.	.	.	.	.	.	.	24a\JJ	.	.	.	.	.	.	.
!	!	!	!	!	!	!	!	!	!	!	!	!	!	!LO:TX:t=P:problem= problem klamry łukowej
8BB/	6	.	8BB/	.	4g/	.	16.dd\LL	.	8g\	.	4gg\	.	4g/	24b\L
.	.	.	.	.	.	.	.	.	.	.	.	.	.	24a\
.	.	.	.	.	.	.	.	.	.	.	.	.	.	24g\JJ
.	.	.	.	.	.	.	32g\JJk	.	.	.	.	.	.	.
!	!	!	!	!	!	!	!LO:TX:a:t=t.	!	!	!	!	!	!	!LO:TX:a:t=t.
.	.	.	.	.	.	.	8qqg/	.	.	.	.	.	.	.
8C/	6 5	.	8C/	.	.	.	4a/	.	8dd\	.	.	.	.	4a/
!	!	!	!	!	!LO:TX:a:t=t.	!	!	!	!	!	!	!	!LO:TX:a:t=t.	!
8D/J	#	.	8D/J	.	8f#X/	.	.	.	8dd\J	.	8ff#X\	.	8f#X/	.
*	*	*	*	*	*	*	*Xtuplet	*	*	*	*	*	*	*Xtuplet
!	!	!	!	!	!	!	!	!	!	!	!LO:LB:g=original	!	!	!
=52	=52	=52	=52	=52	=52	=52	=52	=52	=52	=52	=52	=52	=52	=52
!	!	!	!	!	!	!	! 	!	!	!	!	!	!	!
8GG/L	3	.	8GG/L	.	8g`/L	.	16b\KL	.	4g/	.	4gg\	.	8g/L	16b\KL
.	.	.	.	.	.	.	(8ee\	.	.	.	.	.	.	(8ee\
8G\	6	.	8G\	.	8b/	.	.	.	.	.	.	.	8b/	.
.	.	.	.	.	.	.	32dd\LL	.	.	.	.	.	.	32dd\LL
.	.	.	.	.	.	.	32cc#X\JJJ)	.	.	.	.	.	.	32cc#X\JJJ)
!	!	!	!	!	!	!	!LO:LB:g=original	!	!	!	!	!	!	! 
8F#X\	6	.	8F#X\	.	8a/	.	16dd`\KL	.	4r	.	4r	.	8a/	16dd`\KL
.	.	.	.	.	.	.	(8ccn\	.	.	.	.	.	.	(8ccn\
8E\J	6	.	8E\J	.	8g/J	.	.	.	.	.	.	.	8g/J	.
.	.	.	.	.	.	.	32b\LL	.	.	.	.	.	.	32b\LL
.	.	.	.	.	.	.	32a\JJJ)	.	.	.	.	.	.	32a#X\JJJ)
=53	=53	=53	=53	=53	=53	=53	=53	=53	=53	=53	=53	=53	=53	=53
!	!	!	!	!	!	!	! 	!	!LO:TX:a:t=1.	!	!LO:TX:a:t=1.	!	!	! 
8D/L	6 #	.	8D/L	.	8f#X/L	.	16b`/KL	.	2r	.	2r	.	8f#X/L	16b/KL
.	.	.	.	.	.	.	(8an/	.	.	.	.	.	.	(8an/
8C/	6	.	8C/	.	8e/	.	.	.	.	.	.	.	8e/	.
.	.	.	.	.	.	.	32g/LL	.	.	.	.	.	.	32g/LL
.	.	.	.	.	.	.	32f#X/JJJ)	.	.	.	.	.	.	32f#X/JJJ)
!	!	!	!	!	!	!	!	!	!	!	!	!	!	!
*	*	*	*	*	*	*	*tuplet	*	*	*	*	*	*	*tuplet
!	!	!	!	!	!	!	!LO:TX:t=P:problem= problem klamry łukowej	!	!	!	!	!	!	!
!	!	!	!	!	!	!	!	!	!	!	!	!	!	!LO:TX:t=P:problem= problem klamry łukowej
8BB/	6	.	8BB/	.	8d/	.	24g/LL	.	.	.	.	.	8d/	24g/LL
.	.	.	.	.	.	.	24a/	.	.	.	.	.	.	24a/
.	.	.	.	.	.	.	24b/JJ	.	.	.	.	.	.	24b/JJ
!	!	!	!	!	!	!	!LO:TX:t=P:problem= problem klamry łukowej	!	!	!	!	!	!	!LO:TX:t=P:problem= problem klamry łukowej
8AA/J	#6	.	8AA/J	.	8f#X/J	.	24cc\LL	.	.	.	.	.	8f#X/J	24cc\LL
.	.	.	.	.	.	.	24b\	.	.	.	.	.	.	24b\
.	.	.	.	.	.	.	24cc\JJ	.	.	.	.	.	.	24cc\JJ
=54	=54	=54	=54	=54	=54	=54	=54	=54	=54	=54	=54	=54	=54	=54
*	*	*	*	*	*tuplet	*	*	*	*	*	*	*	*tuplet	*
!	!	!	!	!	!LO:TX:t=P:problem= problem klamry łukowej	!	!LO:TX:t=P:problem= problem klamry łukowej	!	!	!	!	!	!LO:TX:t=P:problem= problem klamry łukowej	!LO:TX:t=P:problem= problem klamry łukowej
8GG/L	.	.	8GG/L	.	24g/LL	.	24b\LL	.	4g/	.	4gg\	.	24g/LL	24b\LL
.	.	.	.	.	24a/	.	24cc\	.	.	.	.	.	24a/	24cc\
.	.	.	.	.	24b/JJ	.	24dd\JJ	.	.	.	.	.	24b/JJ	24dd\JJ
!	!	!	!	!	!LO:TX:t=P:problem= problem klamry łukowej	!	!LO:TX:t=P:problem= problem klamry łukowej	!	!	!	!	!	!LO:TX:t=P:problem= problem klamry łukowej	!LO:TX:t=P:problem= problem klamry łukowej
8C/	6	.	8C/J	.	24cc\LL	.	24ee\LL	.	.	.	.	.	24cc\LL	24ee\LL
.	.	.	.	.	24b\	.	24dd\	.	.	.	.	.	24b\	24dd\
.	.	.	.	.	24a\JJ	.	24cc\JJ	.	.	.	.	.	24a\JJ	24cc\JJ
!	!	!	!LO:TX:t=P:problem=mixed beam	!	!LO:TX:a:t=t.	!	!LO:TX:a:t=t.	!	!	!	!	!	!LO:TX:a:t=t.	!LO:TX:a:t=t.
.	.	.	.	.	8qqg/	.	8qqb/	.	.	.	.	.	8qqg/	8qqb/
8D/	#	.	8D\L	.	4f#X/	.	4a/	.	4dd\	.	4ff#Xt\	.	4f#X/	4a/
8DD/J	.	.	8DD/J	.	.	.	.	.	.	.	.	.	.	.
*	*	*	*	*	*Xtuplet	*	*Xtuplet	*	*	*	*	*	*Xtuplet	*Xtuplet
!LO:LB:g=original	!	!	!LO:DY:b:t=for	!	!LO:LB:g=original	!	!	!	!	!	!	!	!LO:LB:g=original	!LO:LB:g=original
=55	=55	=55	=55	=55	=55	=55	=55	=55	=55	=55	=55	=55	=55	=55
!	!	!	!	!	!	!	!	!	!	!	!	!	!	!
4GG/	.	.	4GG/	.	4g/	.	4g/	.	4g/	.	4gg\	.	8g/L	8g/L
!	!	!	!	!	!	!	!	!	!	!	!	!	!	!LO:TX:b:t=Solo.
.	.	.	.	.	.	.	.	.	.	.	.	.	[8dd\J	[8bb\J
8r	.	.	8r	.	8r	.	8r	.	4r	.	4r	.	24dd\LL]	24bb\LL]
.	.	.	.	.	.	.	.	.	.	.	.	.	24b\	24gg\
.	.	.	.	.	.	.	.	.	.	.	.	.	24dd\JJ	24bb\JJ
!	!	!LO:DY:b:t=pia&colon;	!	!LO:DY:b:t=pia&colon;	!	!LO:DY:b:t=p&colon;	!	!LO:DY:b:t=pia&colon;	!	!	!	!	!	!
8D\	7 #	p	8D\	p	8a/	p	8ff#X\	p	.	.	.	.	24cc\LL	24aa\LL
.	.	.	.	.	.	.	.	.	.	.	.	.	24a\	24ff#X\
.	.	.	.	.	.	.	.	.	.	.	.	.	24cc\JJ	24aa\JJ
=56	=56	=56	=56	=56	=56	=56	=56	=56	=56	=56	=56	=56	=56	=56
!	!	!	!	!	!	!	!	!	!LO:TX:a:t=2.	!	!LO:TX:a:t=2.	!	!	!
4G\	.	.	4G\	.	4b/	.	4dd\	.	2r	.	2r	.	8b/L	8gg\L
.	.	.	.	.	.	.	.	.	.	.	.	.	[8b/J	[8dd\J
8r	.	.	8r	.	8r	.	8r	.	.	.	.	.	24b/LL]	24dd\LL]
.	.	.	.	.	.	.	.	.	.	.	.	.	24g/	24b\
.	.	.	.	.	.	.	.	.	.	.	.	.	24b/JJ	24dd\JJ
8D\	7 #	.	8D\	.	8a/	.	8f#X/	.	.	.	.	.	24a/LL	24cc\LL
.	.	.	.	.	.	.	.	.	.	.	.	.	24f#X/	24a\
.	.	.	.	.	.	.	.	.	.	.	.	.	24a/JJ	24cc\JJ
=57	=57	=57	=57	=57	=57	=57	=57	=57	=57	=57	=57	=57	=57	=57
!	!	!	!	!	!	!	!	!	!	!	!	!	!	!
8G\L	.	.	8G\L	.	8g/L	.	8d/L	.	2r	.	2r	.	(24g/LL	(24b\LL
.	.	.	.	.	.	.	.	.	.	.	.	.	24b/)	24dd\)
!	!	!	!	!	!	!	!	!	!	!	!	!	! 	! 
.	.	.	.	.	.	.	.	.	.	.	.	.	24b`/JJ	24dd`\JJ
8GG/	.	.	8GG/	.	8d/	.	8b/	.	.	.	.	.	(24b\LL	(24dd\LL
.	.	.	.	.	.	.	.	.	.	.	.	.	24dd\)	24ffn\)
!	!	!	!	!	!	!	!	!	!	!	!	!	! 	! 
.	.	.	.	.	.	.	.	.	.	.	.	.	24dd`\JJ	24ff`\JJ
!	!	!	!	!	!	!	!	!	!	!	!	!	!LO:TX:a:t=t.	!LO:TX:a:t=t.
.	.	.	.	.	.	.	.	.	.	.	.	.	.	8qqgg/
8GG/	n7r	.	8GG/	.	8d/	.	8b/	.	.	.	.	.	8.dd\L	8.ff\L
8GG/J	.	.	8GG/J	.	8d/J	.	8b/J	.	.	.	.	.	.	.
.	.	.	.	.	.	.	.	.	.	.	.	.	32cc\LL	32ee\LL
.	.	.	.	.	.	.	.	.	.	.	.	.	32b\JJJ	32dd\JJJ
=58	=58	=58	=58	=58	=58	=58	=58	=58	=58	=58	=58	=58	=58	=58
*	*	*	*	*	*	*	*	*	*	*	*	*	*	*tuplet
!	!	!	!	!	!	!	!	!	!	!	!	!	!	!LO:TX:t=P:problem= problem klamry łukowej
4C/	.	.	4C/	.	4e/	.	4g/	.	8gg\L	.	8eee\L	.	16cc\LL	24ee\LL
.	.	.	.	.	.	.	.	.	.	.	.	.	.	24dd\
.	.	.	.	.	.	.	.	.	.	.	.	.	16dd\J	.
.	.	.	.	.	.	.	.	.	.	.	.	.	.	24cc\J
.	.	.	.	.	.	.	.	.	[8gg\J	.	[8eee\J	.	8ee\J	8cc\J
8r	.	.	8r	.	4r	.	4r	.	24gg\LL]	.	24eee\LL]	.	4r	4r
.	.	.	.	.	.	.	.	.	24ee\	.	24ccc\	.	.	.
.	.	.	.	.	.	.	.	.	24gg\JJ	.	24eee\JJ	.	.	.
8G\	7	.	8G\	.	.	.	.	.	24ff\LL	.	24ddd\LL	.	.	.
.	.	.	.	.	.	.	.	.	24dd\	.	24bb\	.	.	.
.	.	.	.	.	.	.	.	.	24ff\JJ	.	24ddd\JJ	.	.	.
*	*	*	*	*	*	*	*	*	*	*	*	*	*	*Xtuplet
=59	=59	=59	=59	=59	=59	=59	=59	=59	=59	=59	=59	=59	=59	=59
!	!	!	!	!	!LO:TX:a:t=2.	!	!LO:TX:a:t=2.	!	!	!	!	!	!	!
4c\	.	.	4c\	.	2r	.	2r	.	8ee\L	.	8ccc\L	.	8r	8r
.	.	.	.	.	.	.	.	.	[8ee\J	.	[8gg\J	.	4ee\	4gg\
8r	.	.	8r	.	.	.	.	.	24ee\LL]	.	24gg\LL]	.	.	.
.	.	.	.	.	.	.	.	.	24cc\	.	24ee\	.	.	.
.	.	.	.	.	.	.	.	.	24ee\JJ	.	24gg\JJ	.	.	.
8G\	7	.	8G\	.	.	.	.	.	24dd\LL	.	24ff\LL	.	8dd\	8ff\
.	.	.	.	.	.	.	.	.	24b\	.	24dd\	.	.	.
.	.	.	.	.	.	.	.	.	24dd\JJ	.	24ff\JJ	.	.	.
!	!	!	!	!	!	!	!	!	!LO:LB:g=original	!	!	!	!	!
=60	=60	=60	=60	=60	=60	=60	=60	=60	=60	=60	=60	=60	=60	=60
!	!	!	!	!	!	!	!	!	!	!	!	!	!	!
8c\L	.	.	8c\L	.	2r	.	2r	.	24cc\LL	.	24ee\LL	.	4cc\	4ee\
.	.	.	.	.	.	.	.	.	24ee\	.	24gg\	.	.	.
.	.	.	.	.	.	.	.	.	24ee\JJ	.	24gg\JJ	.	.	.
8C/	.	.	8C\	.	.	.	.	.	24ee\LL	.	24gg\LL	.	.	.
.	.	.	.	.	.	.	.	.	24gg\	.	24bb-X\	.	.	.
.	.	.	.	.	.	.	.	.	24gg\JJ	.	24bb-\JJ	.	.	.
!	!	!	!	!	!	!	!	!	!LO:TX:a:t=t.	!	!LO:TX:a:t=t	!	!	!
8C/	-7r	.	8C\	.	.	.	.	.	8.gg\L	.	8.bb-\L	.	4r	4r
8C/J	.	.	8C\J	.	.	.	.	.	.	.	.	.	.	.
.	.	.	.	.	.	.	.	.	32ff\LL	.	32aa\LL	.	.	.
.	.	.	.	.	.	.	.	.	32ee\JJJ	.	32gg\JJJ	.	.	.
=61	=61	=61	=61	=61	=61	=61	=61	=61	=61	=61	=61	=61	=61	=61
8F\L	.	.	8F\L	.	4r	.	4r	.	(16ff\LL	.	(16aa\LL	.	4r	4r
.	.	.	.	.	.	.	.	.	16ee\J)	.	16gg\J)	.	.	.
!	!	!	!	!	!	!	!	!	! 	!	! 	!	!	!
8c\J	.	.	8c\J	.	.	.	.	.	8ee`\J	.	8gg`\J	.	.	.
!	!	!	!	!	!	!	!	!	!	!	!	!	!	!
4r	.	.	4r	.	8f/L	.	8f/L	.	4r	.	4r	.	(16ff\LL	(16aa\LL
.	.	.	.	.	.	.	.	.	.	.	.	.	16ee\J)	16gg\J)
!	!	!	!	!	!	!	!	!	!	!	!	!	! 	! 
.	.	.	.	.	8cc/J	.	8cc\J	.	.	.	.	.	8ee`\J	8gg`\J
!	!	!	!	!	!	!	!LO:LB:g=original	!	!	!	!	!	!	!
=62	=62	=62	=62	=62	=62	=62	=62	=62	=62	=62	=62	=62	=62	=62
8G\L	7 n	.	8G\L	.	4r	.	4r	.	(16dd\LL	.	(16ff\LL	.	4r	4r
.	.	.	.	.	.	.	.	.	16cc\J)	.	16ee\J)	.	.	.
!	!	!	!	!	!	!	!	!	! 	!	! 	!	!	!
8C\J	.	.	8C\J	.	.	.	.	.	8cc`\J	.	8ee`\J	.	.	.
4r	.	.	4r	.	8g/L	.	8g/L	.	4r	.	4r	.	(16dd\LL	(16ff\LL
.	.	.	.	.	.	.	.	.	.	.	.	.	16cc\J)	16ee\J)
!	!	!	!	!	!	!	!	!	!	!	!	!	! 	! 
.	.	.	.	.	8c/J	.	8c/J	.	.	.	.	.	8cc`\J	8ee`\J
!	!	!	!	!	!	!	!	!	!	!	!	!	!	!LO:LB:g=original
=63	=63	=63	=63	=63	=63	=63	=63	=63	=63	=63	=63	=63	=63	=63
!	!	!	!	!	!LO:TX:a:t=1.	!	!LO:TX:a:t=1.	!	!LO:TX:a:t=2.	!	!LO:TX:a:t=2.	!	!	!
4.F\	6	.	4.F\	.	2r	.	2r	.	2r	.	2r	.	4.a/	(16dd\LL
.	.	.	.	.	.	.	.	.	.	.	.	.	.	16ff\
.	.	.	.	.	.	.	.	.	.	.	.	.	.	16aa\)
.	.	.	.	.	.	.	.	.	.	.	.	.	.	16gg\JJ
.	.	.	.	.	.	.	.	.	.	.	.	.	.	8qqgg/
.	.	.	.	.	.	.	.	.	.	.	.	.	.	16ff\LL
.	.	.	.	.	.	.	.	.	.	.	.	.	.	16ee\
.	.	.	.	.	.	.	.	.	.	.	.	.	.	8qqee/
8F#X\	5	.	8F#X\	.	.	.	.	.	.	.	.	.	8a/	16dd\
.	.	.	.	.	.	.	.	.	.	.	.	.	.	16cc\JJ
=64	=64	=64	=64	=64	=64	=64	=64	=64	=64	=64	=64	=64	=64	=64
!	!	!	!	!	!	!	!	!	!	!	!	!	!	!
8G\L	.	.	8G\L	.	4r	.	4r	.	2r	.	2r	.	16g/LL	16b/LL
.	.	.	.	.	.	.	.	.	.	.	.	.	16a/J	16a/J
8GG/J	.	.	8GG/J	.	.	.	.	.	.	.	.	.	[8b/J	8.g/J
!	!	!	!	!	!	!	!	!	!	!	!	!	!LO:LB:g=original	!
4r	.	.	4r	.	16r	.	16r	.	.	.	.	.	16b/LL]	.
!	!	!	!	!	!	!LO:DY:b:t=for&colon;	!	!LO:DY:b:t=for.	!	!	!	!	!	!
.	.	.	.	.	16f#X/LL	f	16a\LL	f	.	.	.	.	16f#X/	16a/LL
.	.	.	.	.	16.g/	.	16.b\	.	.	.	.	.	16.g/	16.b/
.	.	.	.	.	32a/JJk	.	32cc\JJk	.	.	.	.	.	32a/JJk	32cc/JJk
!LO:LB:g=original	!	!	!	!	!	!	!	!	!	!	!	!	!	!
=65	=65	=65	=65	=65	=65	=65	=65	=65	=65	=65	=65	=65	=65	=65
!	!	!LO:DY:b:t=forte.	!	!LO:DY:b:t=for	!	!	!	!	!	!	!	!	!	!
8G\L	7	f	8G\L	f	8b\	.	8dd\	.	8r	.	8r	.	2b\	2dd\
8G\	.	.	8G\	.	4b\	.	4dd\	.	8g/L	.	8dd\L	.	.	.
8G\	.	.	8G\	.	.	.	.	.	8g/	.	8dd\	.	.	.
8G\J	.	.	8G\J	.	16cc\LL	.	16ee\LL	.	8g/J	.	8dd\J	.	.	.
.	.	.	.	.	16dd\JJ	.	16ff\JJ	.	.	.	.	.	.	.
!	!	!	!	!	!	!	!	!	!	!	!LO:LB:g=original	!	!	!
=66	=66	=66	=66	=66	=66	=66	=66	=66	=66	=66	=66	=66	=66	=66
8c\L	.	.	8c\L	.	16cc\LL	.	16ee\LL	.	8.cc\L	.	8.ee\L	.	[2cc\	[2ee\
.	.	.	.	.	16dd\J	.	16dd\J	.	.	.	.	.	.	.
8c\	.	.	8c\	.	8.ee\J	.	8.cc\J	.	.	.	.	.	.	.
.	.	.	.	.	.	.	.	.	16dd\Jk	.	16ff\Jk	.	.	.
8c\	.	.	8c\	.	.	.	.	.	4ee\	.	4gg\	.	.	.
.	.	.	.	.	16dd\LL	.	16b\LL	.	.	.	.	.	.	.
8c\J	.	.	8c\J	.	16.cc\	.	16.cc\	.	.	.	.	.	.	.
.	.	.	.	.	32b\JJk	.	32dd\JJk	.	.	.	.	.	.	.
!	!	!	!LO:LB:g=original	!	!LO:LB:g=original	!	!	!	!	!	!	!	!	!
=67	=67	=67	=67	=67	=67	=67	=67	=67	=67	=67	=67	=67	=67	=67
8C/L	.	.	8C/L	.	8cc\	.	8ee\	.	8r	.	8r	.	2cc\]	2ee\]
8C/	.	.	8C/	.	4cc\	.	4ee\	.	8ee\L	.	8gg\L	.	.	.
8C/	.	.	8C/	.	.	.	.	.	8ee\	.	8gg\	.	.	.
8C/J	.	.	8C/J	.	16dd\LL	.	16ff\LL	.	8ee\J	.	8gg\J	.	.	.
.	.	.	.	.	16ee\JJ	.	16gg\JJ	.	.	.	.	.	.	.
=68	=68	=68	=68	=68	=68	=68	=68	=68	=68	=68	=68	=68	=68	=68
8GG/L	7	.	8GG/L	.	16dd\LL	.	16ff\LL	.	8.dd\L	.	8.ff\L	.	[2dd\	[2ff\
.	.	.	.	.	16cc\J	.	16ee\J	.	.	.	.	.	.	.
8GG/	.	.	8GG/	.	8.b\J	.	8.dd\J	.	.	.	.	.	.	.
.	.	.	.	.	.	.	.	.	16cc\Jk	.	16ee\Jk	.	.	.
8GG/	.	.	8GG/	.	.	.	.	.	4g/	.	4dd\	.	.	.
.	.	.	.	.	16a\LL	.	16cc\LL	.	.	.	.	.	.	.
8GG/J	.	.	8GG/J	.	16.b\	.	16.dd\	.	.	.	.	.	.	.
.	.	.	.	.	32cc\JJk	.	32ee\JJk	.	.	.	.	.	.	.
=69	=69	=69	=69	=69	=69	=69	=69	=69	=69	=69	=69	=69	=69	=69
8BB/L	6 5	.	8BB/L	.	8dd\	.	8ff\	.	8r	.	8r	.	2dd\]	2ff\]
8BB/	.	.	8BB/	.	4dd\	.	4ff\	.	8g/L	.	8dd\L	.	.	.
8BB/	.	.	8BB/	.	.	.	.	.	8g/	.	8dd\	.	.	.
8BB/J	.	.	8BB/J	.	16ee\LL	.	16gg\LL	.	8g/J	.	8dd\J	.	.	.
.	.	.	.	.	16ff\JJ	.	16aa\JJ	.	.	.	.	.	.	.
=70	=70	=70	=70	=70	=70	=70	=70	=70	=70	=70	=70	=70	=70	=70
!	!	!	!	!	!	!	!	!	!	!	!	!	!	!
8C\L	.	.	8C\L	.	8e/L	.	8gg\L	.	8cc\L	.	8ee\L	.	8cc\L	8ee\L
8D\	6	.	8D\	.	8f/	.	8b\J	.	8dd\J	.	8ff\J	.	8ff\	8b\J
8E\	6	.	8E\	.	8g/	.	[4cc\	.	[4ee\	.	[4gg\	.	8ee\	[4cc\
8D\J	7	.	8D\J	.	8f/J	.	.	.	.	.	.	.	8f/J	.
!	!	!	!	!	!	!	!LO:LB:g=original	!	!	!	!	!	!	!
!	!	!	!	!	!	!	!	!	!LO:LB:g=original	!	!	!	!	!
=71	=71	=71	=71	=71	=71	=71	=71	=71	=71	=71	=71	=71	=71	=71
!	!	!	!	!	!	!	!	!	!	!	!	!	!	!
8E\L	6	.	8E\L	.	8g/	.	24cc\LL]	.	8ee\L]	.	8gg\L]	.	8g/L	8cc\L]
.	.	.	.	.	.	.	24ccc\	.	.	.	.	.	.	.
.	.	.	.	.	.	.	24bb\JJ	.	.	.	.	.	.	.
.	.	.	.	.	.	.	.	.	.	.	.	.	.	16qqdd/LL
.	.	.	.	.	.	.	.	.	.	.	.	.	.	16qqee/JJ
8F\	6 5	.	8F\	.	4cc\	.	24aa\LL	.	8dd\	.	8ff\	.	16.a/L	8ff\
.	.	.	.	.	.	.	24gg\	.	.	.	.	.	.	.
.	.	.	.	.	.	.	24ff\JJ	.	.	.	.	.	.	.
.	.	.	.	.	.	.	.	.	.	.	.	.	32b/JJk	.
8G\	6 4	.	8G\	.	.	.	8ee\L	.	8cc\	.	8ee\	.	8cc\L	8ee\
!	!	!	!	!	!	!	!LO:TX:a:t=t.	!	!	!	!LO:TX:a:t=t	!	!LO:TX:a:t=t.	!
8GG/J	5 3	.	8GG/J	.	8b\	.	8dd\J	.	8g\J	.	8dd\J	.	8b\J	8dd\J
=72	=72	=72	=72	=72	=72	=72	=72	=72	=72	=72	=72	=72	=72	=72
!	!	!	!	!	!LO:TX:t=P:problem=mixed beam	!	!	!	!	!	!	!	!	!
8C\L	.	.	8C\L	.	8cc\L	.	8cc\	.	4e/	.	4cc\	.	4cc\	4cc\
16C\L	.	.	16C\L	.	16e/L	.	4cc\	.	.	.	.	.	.	.
16D\JJ	.	.	16D\JJ	.	16f/JJ	.	.	.	.	.	.	.	.	.
8E\L	6	.	8E\L	.	8g/L	.	.	.	4r	.	4r	.	4r	8r
!	!	!LO:DY:b:t=pia	!	!LO:DY:b:t=pia&colon;	!	!	!	!	!	!	!	!	!	!LO:TX:b:t=Solo.
8C\J	.	p	8C\J	p	8e/J	.	16dd\LL	.	.	.	.	.	.	8gg\
.	.	.	.	.	.	.	16ee\JJ	.	.	.	.	.	.	.
=73	=73	=73	=73	=73	=73	=73	=73	=73	=73	=73	=73	=73	=73	=73
!	!	!	!	!	!	!	!	!LO:DY:b:t=pia&colon;	!	!	!	!	!	!
!	!	!	!	!	!	!	!	!	!	!LO:DY:b:t=pia&colon;	!	!LO:DY:b:t=pia&colon;	!	!
8F\L	.	.	8F\L	.	4r	.	8ff\L	p	[2ff\	p	[2aa\	p	4r	8aa\L
8F\	.	.	8F\	.	.	.	8aa\	.	.	.	.	.	.	[8aa\J
8F\	.	.	8F\	.	8r	.	8ff\	.	.	.	.	.	8r	24aa\LL]
.	.	.	.	.	.	.	.	.	.	.	.	.	.	24gg\
.	.	.	.	.	.	.	.	.	.	.	.	.	.	24ff\JJ
!	!	!	!	!	!	!LO:DY:b:t=pia&colon;	!	!	!	!	!	!	!	!
8F\J	.	.	8F\J	.	8a/	p	8cc\J	.	.	.	.	.	8cc\	24ee\LL
.	.	.	.	.	.	.	.	.	.	.	.	.	.	24dd\
.	.	.	.	.	.	.	.	.	.	.	.	.	.	24cc\JJ
!LO:LB:g=original	!	!	!	!	!	!	!	!	!	!	!	!	!	!LO:LB:g=original
=74	=74	=74	=74	=74	=74	=74	=74	=74	=74	=74	=74	=74	=74	=74
8D\L	6 5	.	8D\L	.	8b\L	.	8r	.	2ff\]	.	2aa\]	.	8dd\L	4b/
8D\	.	.	8D\	.	8dd\J	.	8aa\L	.	.	.	.	.	[8dd\J	.
.	.	.	.	.	.	.	.	.	.	.	.	.	.	8qqb/
8D\	.	.	8D\	.	8r	.	8ff\	.	.	.	.	.	24dd\LL]	4aa\
.	.	.	.	.	.	.	.	.	.	.	.	.	24cc\	.
.	.	.	.	.	.	.	.	.	.	.	.	.	24b\JJ	.
8D\J	.	.	8D\J	.	8f/	.	8b\J	.	.	.	.	.	24a/LL	.
.	.	.	.	.	.	.	.	.	.	.	.	.	24g/	.
.	.	.	.	.	.	.	.	.	.	.	.	.	24f/JJ	.
=75	=75	=75	=75	=75	=75	=75	=75	=75	=75	=75	=75	=75	=75	=75
8E\L	.	.	8E\L	.	8g/L	.	8r	.	[2ee\	.	[2gg\	.	4g/	8gg\L
8E\	.	.	8E\	.	8b/J	.	8gg\L	.	.	.	.	.	.	[8gg\J
8E\	.	.	8E\	.	8r	.	8ee\	.	.	.	.	.	4b/	24gg\LL]
.	.	.	.	.	.	.	.	.	.	.	.	.	.	24ff\
.	.	.	.	.	.	.	.	.	.	.	.	.	.	24ee\JJ
8E\J	.	.	8E\J	.	8g/	.	8b\J	.	.	.	.	.	.	24dd\LL
.	.	.	.	.	.	.	.	.	.	.	.	.	.	24cc\
.	.	.	.	.	.	.	.	.	.	.	.	.	.	24b\JJ
!	!	!	!	!	!LO:LB:g=original	!	!	!	!	!	!	!	!	!
=76	=76	=76	=76	=76	=76	=76	=76	=76	=76	=76	=76	=76	=76	=76
8C/L	6 5	.	8C/L	.	8a\L	.	8r	.	2ee\]	.	2gg\]	.	8cc\L	4a/
8C/	.	.	8C/	.	8cc\J	.	8gg\L	.	.	.	.	.	[8cc\J	.
.	.	.	.	.	.	.	.	.	.	.	.	.	.	8qqa/
8C/	.	.	8C/	.	8r	.	8ee\	.	.	.	.	.	24cc\LL]	4gg\
.	.	.	.	.	.	.	.	.	.	.	.	.	24b\	.
.	.	.	.	.	.	.	.	.	.	.	.	.	24a\JJ	.
8C/J	.	.	8C/J	.	8e/	.	8a\J	.	.	.	.	.	24g/LL	.
.	.	.	.	.	.	.	.	.	.	.	.	.	24f/	.
.	.	.	.	.	.	.	.	.	.	.	.	.	24e/JJ	.
=77	=77	=77	=77	=77	=77	=77	=77	=77	=77	=77	=77	=77	=77	=77
8D/L	.	.	8D/L	.	8f/L	.	8r	.	[2dd\	.	[2ff\	.	4f/	8ff\L
8D/	.	.	8D/	.	8a/J	.	8ff\L	.	.	.	.	.	.	[8ff\J
8D/	.	.	8D/	.	8r	.	8dd\	.	.	.	.	.	4a/	24ff\LL]
.	.	.	.	.	.	.	.	.	.	.	.	.	.	24ee\
.	.	.	.	.	.	.	.	.	.	.	.	.	.	24dd\JJ
8D/J	.	.	8D/J	.	8f/	.	8a\J	.	.	.	.	.	.	24cc\LL
.	.	.	.	.	.	.	.	.	.	.	.	.	.	24b\
.	.	.	.	.	.	.	.	.	.	.	.	.	.	24a\JJ
=78	=78	=78	=78	=78	=78	=78	=78	=78	=78	=78	=78	=78	=78	=78
8BB/L	6 5	.	8BB/L	.	8g/L	.	8r	.	2dd\]	.	2ff\]	.	8b/L	4g/
8BB/	.	.	8BB/	.	8b/J	.	8dd\L	.	.	.	.	.	[8b/J	.
.	.	.	.	.	.	.	.	.	.	.	.	.	.	8qqg/
8GG/	7	.	8GG/	.	8dd\L	.	8b\	.	.	.	.	.	24b/LL]	4ff\
.	.	.	.	.	.	.	.	.	.	.	.	.	24a/	.
.	.	.	.	.	.	.	.	.	.	.	.	.	24g/JJ	.
!	!	!	!	!	!	!	!	!	!	!	!	!	!LO:LB:g=original	!
8GG/J	.	.	8GG/J	.	8b\J	.	8dd\J	.	.	.	.	.	24dd\LL	.
.	.	.	.	.	.	.	.	.	.	.	.	.	24cc\	.
.	.	.	.	.	.	.	.	.	.	.	.	.	24b\JJ	.
!	!	!	!LO:LB:g=original	!	!	!	!	!	!	!	!LO:LB:g=original	!	!	!
=79	=79	=79	=79	=79	=79	=79	=79	=79	=79	=79	=79	=79	=79	=79
!	!	!	!	!	!LO:TX:t=P:problem=mixed beam	!	!LO:TX:t=P:problem=mixed beam	!	!	!	!	!	!	! 
4C/	.	.	4C/	.	8cc\L	.	8cc\L	.	4cc\	.	4ee\	.	8cc\L	16ee`\KL
.	.	.	.	.	.	.	.	.	.	.	.	.	.	(8aa\
.	.	.	.	.	8c/	.	8c/	.	.	.	.	.	8ee\	.
.	.	.	.	.	.	.	.	.	.	.	.	.	.	32gg\LL
.	.	.	.	.	.	.	.	.	.	.	.	.	.	32ff#X\JJJ)
!	!	!	!	!	!	!	!	!	!	!	!	!	!	! 
4r	.	.	4r	.	8B/	.	8B/	.	4r	.	4r	.	8dd\	16gg`\KL
.	.	.	.	.	.	.	.	.	.	.	.	.	.	(8ffn\
.	.	.	.	.	8A/J	.	8A/J	.	.	.	.	.	8cc\J	.
.	.	.	.	.	.	.	.	.	.	.	.	.	.	32ee\LL
.	.	.	.	.	.	.	.	.	.	.	.	.	.	32dd#X\JJJ)
=80	=80	=80	=80	=80	=80	=80	=80	=80	=80	=80	=80	=80	=80	=80
!LO:TX:a:t=2.	!	!	!LO:TX:a:t=2.	!	!	!	!	!	!LO:TX:a:t=5.	!	!LO:TX:a:t=5.	!	!	! 
2r	.	.	2r	.	8G/L	.	8G/L	.	2r	.	2r	.	8b/L	16ee`\KL
.	.	.	.	.	.	.	.	.	.	.	.	.	.	(8ddn\
.	.	.	.	.	8f/	.	8f/	.	.	.	.	.	8a/	.
.	.	.	.	.	.	.	.	.	.	.	.	.	.	32cc\LL
.	.	.	.	.	.	.	.	.	.	.	.	.	.	32b\JJJ)
*	*	*	*	*	*	*	*	*	*	*	*	*	*tuplet	*tuplet
!	!	!	!	!	!	!	!	!	!	!	!	!	!	!LO:TX:t=P:problem= problem klamry łukowej
.	.	.	.	.	8e/	.	8e/	.	.	.	.	.	8g/	24cc\LL
.	.	.	.	.	.	.	.	.	.	.	.	.	.	24dd\
.	.	.	.	.	.	.	.	.	.	.	.	.	.	24ee\JJ
!	!	!	!	!	!	!	!	!	!	!	!	!	!	!LO:TX:t=P:problem= problem klamry łukowej
.	.	.	.	.	8d/J	.	8d/J	.	.	.	.	.	8b/J	24ff\LL
.	.	.	.	.	.	.	.	.	.	.	.	.	.	24ee\
.	.	.	.	.	.	.	.	.	.	.	.	.	.	24ff\JJ
!	!	!	!	!	!	!	!LO:LB:g=original	!	!	!	!	!	!	!
=81	=81	=81	=81	=81	=81	=81	=81	=81	=81	=81	=81	=81	=81	=81
!	!	!	!	!	!	!	!	!	!	!	!	!	!LO:TX:t=P:problem= problem klamry łukowej	!LO:TX:t=P:problem= problem klamry łukowej
2r	.	.	2r	.	8c/L	.	8c/L	.	2r	.	2r	.	24cc\LL	24ee\LL
.	.	.	.	.	.	.	.	.	.	.	.	.	24dd\	24ff\
.	.	.	.	.	.	.	.	.	.	.	.	.	24ee\JJ	24gg\JJ
!	!	!	!	!	!	!	!	!	!	!	!	!	!LO:TX:t=P:problem= problem klamry łukowej	!LO:TX:t=P:problem= problem klamry łukowej
.	.	.	.	.	8f/	.	8f/J	.	.	.	.	.	24ff\LL	24aa\LL
.	.	.	.	.	.	.	.	.	.	.	.	.	24ee\	24gg\
.	.	.	.	.	.	.	.	.	.	.	.	.	24dd\JJ	24ff\JJ
.	.	.	.	.	8g/	.	8g/L	.	.	.	.	.	8cc\L	8ee\L
!	!	!	!	!	!	!	!	!	!	!	!	!	!LO:TX:a:t=t.	!
.	.	.	.	.	8G/J	.	8G/J	.	.	.	.	.	8b\J	8ddT\J
*	*	*	*	*	*	*	*	*	*	*	*	*	*Xtuplet	*Xtuplet
=82	=82	=82	=82	=82	=82	=82	=82	=82	=82	=82	=82	=82	=82	=82
4C/	.	.	4C/	.	4c/	.	4c/	.	2r	.	2r	.	24cc\LL	24ee\LL
.	.	.	.	.	.	.	.	.	.	.	.	.	24ee\	24cc\
.	.	.	.	.	.	.	.	.	.	.	.	.	24cc\JJ	24ee\JJ
.	.	.	.	.	.	.	.	.	.	.	.	.	24dd\LL	24ff\LL
.	.	.	.	.	.	.	.	.	.	.	.	.	24ff\	24dd\
.	.	.	.	.	.	.	.	.	.	.	.	.	24dd\JJ	24ff\JJ
4r	.	.	4r	.	4r	.	4r	.	.	.	.	.	24ee\LL	24gg\LL
.	.	.	.	.	.	.	.	.	.	.	.	.	24gg\	24ee\
.	.	.	.	.	.	.	.	.	.	.	.	.	24ee\JJ	24gg\JJ
.	.	.	.	.	.	.	.	.	.	.	.	.	24ff\LL	24aa\LL
.	.	.	.	.	.	.	.	.	.	.	.	.	24aa\	24ff\
.	.	.	.	.	.	.	.	.	.	.	.	.	24ff\JJ	24aa\JJ
=83	=83	=83	=83	=83	=83	=83	=83	=83	=83	=83	=83	=83	=83	=83
.	.	.	.	.	.	.	.	.	.	.	.	.	.	16qqee/LL
!	!	!	!	!	!LO:TX:a:t=2.	!	!LO:TX:a:t=2.	!	!	!	!	!	!	!
.	.	.	.	.	.	.	.	.	.	.	.	.	.	16qqgg/JJ
8C\L	.	.	8C\L	.	2r	.	2r	.	2r	.	2r	.	16.ee\LL	8.ccc\L
.	.	.	.	.	.	.	.	.	.	.	.	.	32ff\JK	.
8D\	7	.	8D\	.	.	.	.	.	.	.	.	.	8ffT\J	.
.	.	.	.	.	.	.	.	.	.	.	.	.	.	32bb\LL
.	.	.	.	.	.	.	.	.	.	.	.	.	.	32aa\JJJ
8E\	6	.	8E\	.	.	.	.	.	.	.	.	.	24gg\LL	8gg\L
.	.	.	.	.	.	.	.	.	.	.	.	.	24ee\	.
.	.	.	.	.	.	.	.	.	.	.	.	.	24cc\JJ	.
8F\J	6	.	8F\J	.	.	.	.	.	.	.	.	.	24aa\LL	8ff\J
.	.	.	.	.	.	.	.	.	.	.	.	.	24ff\	.
.	.	.	.	.	.	.	.	.	.	.	.	.	24dd\JJ	.
=84	=84	=84	=84	=84	=84	=84	=84	=84	=84	=84	=84	=84	=84	=84
!	!	!	!	!	!LO:TX:b:t=Da Capo Sino al . Segno.	!	!LO:TX:b:t=Da Capo Sino al . Segno.	!	!LO:TX:b:t=Da Capo \nSino al . Segno.	!	!LO:TX:b:t=Da Capo Sino al . Segno.	!	!	!
16G\LL	6 4	.	16G\LL	.	2r	.	2r	.	2r	.	2r	.	4cc\	4ee\
16F\	.	.	16F\	.	.	.	.	.	.	.	.	.	.	.
16E\	.	.	16E\	.	.	.	.	.	.	.	.	.	.	.
16F\JJ	.	.	16F\JJ	.	.	.	.	.	.	.	.	.	.	.
*	*	*	*	*	*	*	*	*	*	*	*	*	*custos:cc	*
!	!	!	!	!	!	!	!	!	!	!	!	!	!LO:TX:b:t=Da Capo \nSino al . Segno.	!
!	!	!	!	!	!	!	!	!	!	!	!	!	!	!LO:TX:b:t=Da Capo Sino al . Segno.
!	!	!	!	!	!	!	!	!	!	!	!	!	!LO:TX:a:t=t	!LO:TX:a:t=t.
8G\L	7 3	.	8G\L	.	.	.	.	.	.	.	.	.	4b/	4dd\
!LO:TX:b:t=Da Capo Sino al Segno.	!	!	!LO:TX:b:t=Da Capo Sino al Segno.	!	!	!	!	!	!	!	!	!	!	!
8GG/J	.	.	8GG/J	.	.	.	.	.	.	.	.	.	.	.
==	==	==	==	==	==	==	==	==	==	==	==	==	==	==
*-	*-	*-	*-	*-	*-	*-	*-	*-	*-	*-	*-	*-	*-	*-
!!!system-decoration: [(s1,s2)][(s3,s4)][([(s5,s6)]s7)]s8
!!!RDF**kern: > = above
!!!RDF**kern: < = below
!!!ENC: Filip Voros
!!!END: 2022-02-13
!!!ENC: Natalia Wrzos
!!!END: 2022-02-25
!!!YEC: Copyright 2022 Narodowy Instytut Fryderyka Chopina (https://polishscores.org)
!!!YEM: License CC-BY-4.0 (https://creativecommons.org/licenses/by/4.0)
